%
O00001543
(DIAMOND 3MM STOCK STEP 1)
(T8  D=2. CR=0. - ZMIN=0. - FLAT END MILL)
G90 G94 G17
G21
G91
G28 Z0.
G90
(ADAPTIVE1)
T8 M6
S5000 M3
G54
G0 X-0.182 Y-2.299
G43 Z18. H8
G0 Z0.4
G1 Z0.2 F1000.
X-0.18 Y-2.293 Z0.149
X-0.175 Y-2.273 Z0.1
X-0.167 Y-2.243 Z0.059
X-0.157 Y-2.202 Z0.027
X-0.145 Y-2.156 Z0.007
X-0.132 Y-2.106 Z0.
G3 X0.024 Y-1.017 I-4.946 J1.267
G1 Y-0.867
X-0.077 Y-0.37
G2 X-0.169 Y2.163 I21.128 J2.036
G1 X-0.175 Y3.178
X-0.176 Y18.904
Y60.374
X-0.155 Y60.5
X-0.05 Y60.73
X0.124 Y60.915
X0.541 Y61.204
X1.025 Y61.356
G2 X3.046 Y61.497 I1.814 J-11.442
G1 X3.554 Y61.503
X4.061 Y61.505
X5.583 Y61.507
X38.556 Y61.5
X122.639 Y61.482
X122.761 Y61.448
X122.978 Y61.316
X123.15 Y61.129
X123.417 Y60.698
X123.556 Y60.21
G2 X123.685 Y58.188 I-12.556 J-1.813
G1 X123.69 Y57.68
X123.693 Y56.666
X123.692 Y52.1
X123.676 Y0.864
X123.633 Y0.745
X123.501 Y0.528
X123.315 Y0.356
X122.883 Y0.089
X122.396 Y-0.051
G2 X120.373 Y-0.18 I-1.816 J12.552
G1 X119.866 Y-0.185
X118.851 Y-0.188
X118.344
X68.123 Y-0.183
X1.795 Y-0.176
X1.671 Y-0.153
X1.439 Y-0.049
X1.251 Y0.121
X0.954 Y0.532
X0.792 Y1.013
G2 X0.636 Y3.033 I10.606 J1.834
G1 X0.629 Y3.54
X0.627 Y4.048
X0.625 Y5.062
X0.624 Y23.325
Y59.342
X0.662 Y59.593
X0.774 Y59.82
X0.94 Y60.012
X1.341 Y60.322
X1.816 Y60.502
G2 X3.832 Y60.689 I1.827 J-8.718
X9.919 Y60.706 I3.846 J-290.128
G1 X121.522 Y60.682
X121.773 Y60.645
X122.001 Y60.534
X122.193 Y60.368
X122.506 Y59.969
X122.687 Y59.495
G2 X122.876 Y57.479 I-8.642 J-1.826
X122.892 Y51.392 I-287.778 J-3.817
G1 X122.876 Y1.931
X122.824 Y1.683
X122.699 Y1.462
X122.525 Y1.278
X122.116 Y0.979
X121.638 Y0.807
G2 X119.621 Y0.628 I-1.828 J9.159
X113.026 Y0.612 I-4.13 J331.161
G1 X2.945 Y0.623
X2.692 Y0.627
X2.449 Y0.702
X2.237 Y0.841
X1.884 Y1.205
X1.674 Y1.667
G2 X1.447 Y3.677 I7.264 J1.837
X1.425 Y6.213 I86.576 J2.021
G1 X1.424 Y18.895
Y58.464
X1.466 Y58.714
X1.571 Y58.945
X1.729 Y59.143
X2.116 Y59.471
X2.584 Y59.667
G2 X4.595 Y59.884 I1.858 J-7.789
X7.132 Y59.906 I2.022 J-88.141
G1 X15.248 Y59.905
X120.764 Y59.882
X121.007 Y59.811
X121.224 Y59.679
X121.407 Y59.503
X121.706 Y59.093
X121.881 Y58.617
G2 X122.073 Y56.602 I-8.811 J-1.856
X122.092 Y53.558 I-119.105 J-2.262
G1 X122.08 Y12.468
X122.077 Y2.829
X122.028 Y2.581
X121.916 Y2.353
X121.753 Y2.159
X121.36 Y1.837
X120.891 Y1.645
G2 X118.878 Y1.434 I-1.859 J8.001
X116.341 Y1.412 I-2.032 J90.429
G1 X107.718
X3.724 Y1.423
X3.472 Y1.45
X3.235 Y1.541
X3.029 Y1.689
X2.687 Y2.064
X2.481 Y2.527
G2 X2.249 Y4.537 I7.337 J1.863
X2.225 Y7.073 I82.257 J2.047
G1 X2.224 Y13.16
Y57.139
X2.223 Y57.181
G2 X2.002 Y58.075 I14.668 J4.097
X3.138 Y59.159 I1.019 J0.07
G1 X32.876
G3 X34.828 Y59.108 I1.716 J28.124
G1 X34.907 Y59.132
X34.981 Y59.167
G3 X34.877 Y59.537 I-0.105 J0.17
G1 X33.15 Y59.546
G3 X33.107 Y59.151 I-0.001 J-0.2
G2 X33.793 Y58.783 I-0.164 J-1.131
G3 X34.242 Y58.603 I0.527 J0.666
G1 X34.401 Y58.631
X34.542 Y58.711
X34.647 Y58.835
G3 X34.497 Y59.128 I-0.176 J0.095
G1 X33.863 Y59.211
G3 X33.683 Y58.885 I-0.026 J-0.198
G1 X33.81 Y58.743
X33.819 Y58.73
X33.864 Y58.652
X33.913 Y58.564
X33.954 Y58.467
X34.077 Y58.388
X34.221 Y58.364
X34.362 Y58.4
X34.478 Y58.489
X34.548 Y58.618
G3 X34.524 Y58.792 I-0.223 J0.059
X33.925 Y58.536 I-0.284 J-0.165
G1 X33.963 Y58.421
X33.97 Y58.386
X33.989 Y58.314
X34.065 Y58.185
X34.183 Y58.144
X34.308 Y58.162
X34.411 Y58.233
X34.471 Y58.343
G3 X34.481 Y58.408 I-0.442 J0.104
G1 X34.482 Y58.421
G3 X34.207 Y58.688 I-0.258 J0.009
X33.97 Y58.386 I0.017 J-0.257
G1 X33.987 Y58.306
X33.999 Y58.191
X34.001 Y58.133
X34.007 Y58.105
X34.018 Y58.076
X34.029 Y58.055
X34.051 Y58.023
X34.065 Y58.008
X34.097 Y57.981
X34.108 Y57.974
G3 X34.251 Y58.008 I0.049 J0.109
X34.065 Y58.156 I-0.093 J0.074
Y58.008 I0.093 J-0.074
G1 X34.081 Y57.992
X34.108 Y57.974
X34.134 Y57.961
X34.144 Y57.957
X34.173 Y57.949
X34.202 Y57.946
X34.23 Y57.947
X34.259 Y57.952
X34.285 Y57.961
X34.308 Y57.971
X34.33 Y57.986
X34.356 Y58.009
X34.374 Y58.033
X34.387 Y58.054
X34.397 Y58.076
X34.46 Y58.306
X34.523 Y58.536
X34.524 Y58.54
G2 X34.533 Y58.614 I0.727 J-0.055
X34.563 Y58.726 I0.717 J-0.13
X34.588 Y58.774 I0.189 J-0.066
G1 X34.751 Y59.008
G2 X34.788 Y59.048 I0.164 J-0.115
X34.881 Y59.113 I0.463 J-0.563
X34.95 Y59.149 I0.37 J-0.628
G1 X34.951
G2 X35.311 Y59.297 I0.591 J-0.923
G1 X35.628 Y59.307
G3 X37.763 Y59.121 I1.752 J7.756
G1 X37.8 Y59.137
X37.833 Y59.161
G3 X37.724 Y59.517 I-0.124 J0.157
G1 X35.831 Y59.666
G3 X35.758 Y59.275 I-0.016 J-0.199
G2 X36.381 Y58.828 I-0.3 J-1.077
G3 X36.834 Y58.626 I0.678 J0.911
G1 X36.978 Y58.636
X37.113 Y58.689
X37.225 Y58.782
G3 X37.115 Y59.104 I-0.154 J0.127
G1 X36.494 Y59.245
G3 X36.283 Y58.94 I-0.044 J-0.195
G1 X36.334 Y58.868
X36.393 Y58.767
X36.419 Y58.709
X36.442 Y58.652
X36.499 Y58.488
X36.613 Y58.406
X36.75 Y58.372
X36.889 Y58.392
X37.011 Y58.463
X37.097 Y58.575
G3 X37.115 Y58.811 I-0.308 J0.142
X36.449 Y58.63 I-0.331 J-0.096
G1 X36.477 Y58.536
X36.53 Y58.342
X36.553 Y58.271
X36.652 Y58.2
X36.773 Y58.178
X36.891 Y58.211
X36.983 Y58.29
X37.033 Y58.402
G3 X37.028 Y58.48 I-0.181 J0.029
X37.02 Y58.503 I-0.177 J-0.049
X36.53 Y58.342 I-0.239 J-0.101
X36.627 Y58.021 I1.039 J0.14
X36.656 Y58.031 I0.011 J0.017
G1 X36.667 Y58.043
G3 X36.63 Y58.131 I-0.019 J0.044
X36.602 Y58.076 I0.019 J-0.044
G1 X36.612 Y58.048
X36.627 Y58.021
X36.648 Y57.994
X36.664 Y57.979
X36.68 Y57.967
X36.709 Y57.95
G3 X36.849 Y58.241 I0.07 J0.145
X36.632 Y58.028 I-0.07 J-0.145
X36.642 Y58.01 I0.147 J0.067
X36.68 Y57.967 I0.155 J0.097
G1 X36.689 Y57.961
X36.715 Y57.947
X36.742 Y57.937
X36.769 Y57.932
X36.795 Y57.93
X36.823 Y57.932
X36.851 Y57.937
X36.879 Y57.946
X36.91 Y57.963
X36.924 Y57.973
X36.939 Y57.986
X36.954 Y58.002
X36.967 Y58.019
X36.983 Y58.048
X36.993 Y58.076
X36.999 Y58.105
X37.002 Y58.165
Y58.168
X36.998 Y58.193
X36.996 Y58.218
X36.994 Y58.243
G2 X37.025 Y58.527 I0.829 J0.052
X37.06 Y58.594 I0.192 J-0.056
G1 X37.35 Y58.964
G2 X37.407 Y59.014 I0.157 J-0.123
X37.75 Y59.122 I0.416 J-0.719
G1 X37.752 Y59.123
X37.832 Y59.143
X37.948 Y59.156
X38.063 Y59.159
X54.085
X67.917
G3 X69.813 Y59.102 I1.514 J18.752
G1 X69.889 Y59.122
X69.961 Y59.154
G3 X69.861 Y59.526 I-0.102 J0.172
G1 X68.195 Y59.539
G3 X68.147 Y59.144 I-0.002 J-0.2
G2 X68.798 Y58.782 I-0.184 J-1.097
G1 X68.93 Y58.707
X69.049 Y58.649
X69.214 Y58.604
X69.385 Y58.624
X69.536 Y58.705
X69.646 Y58.837
G3 X69.498 Y59.141 I-0.17 J0.105
G1 X68.86 Y59.212
G3 X68.687 Y58.882 I-0.022 J-0.199
G1 X68.724 Y58.843
X68.792 Y58.767
X68.87 Y58.652
X68.911 Y58.56
X68.98 Y58.427
X69.1 Y58.362
X69.236 Y58.348
X69.367 Y58.386
X69.474 Y58.472
X69.54 Y58.591
G3 X69.552 Y58.669 I-0.338 J0.095
Y58.704 I-0.35 J0.017
X68.886 Y58.68 I-0.333 J-0.017
X68.89 Y58.635 I0.333 J0.007
X68.911 Y58.56 I0.329 J0.052
G1 X68.922 Y58.536
X68.964 Y58.421
X68.979 Y58.342
X68.996 Y58.269
X69.088 Y58.191
X69.204 Y58.161
X69.322 Y58.183
X69.419 Y58.255
X69.475 Y58.361
G3 X69.472 Y58.458 I-0.176 J0.041
X68.979 Y58.342 I-0.242 J-0.077
G1 X69.016 Y58.075
X69.041 Y58.045
X69.075 Y58.024
G3 X69.172 Y58.246 I0.049 J0.111
X69.04 Y58.223 I-0.049 J-0.111
X69.025 Y58.207 I0.085 J-0.09
X69.001 Y58.133 I0.1 J-0.073
G1 X69.007 Y58.105
X69.018 Y58.076
X69.027 Y58.058
X69.039 Y58.039
X69.069 Y58.003
X69.085 Y57.989
X69.102 Y57.977
X69.118 Y57.968
X69.134 Y57.961
X69.159 Y57.952
X69.185 Y57.947
X69.21 Y57.946
X69.235 Y57.947
X69.26 Y57.952
X69.285 Y57.961
X69.3 Y57.967
X69.316 Y57.977
X69.333 Y57.988
X69.35 Y58.003
X69.366 Y58.021
X69.384 Y58.049
X69.397 Y58.076
X69.429 Y58.191
X69.523 Y58.536
X69.524 Y58.54
G2 X69.533 Y58.614 I0.725 J-0.055
X69.563 Y58.725 I0.716 J-0.13
X69.587 Y58.773 I0.189 J-0.066
G1 X69.747 Y59.003
G2 X69.783 Y59.043 I0.164 J-0.114
X69.875 Y59.108 I0.466 J-0.558
X69.943 Y59.144 I0.374 J-0.623
G1 X69.944 Y59.145
X70.136 Y59.248
X70.222 Y59.277
X70.236 Y59.281
X70.553 Y59.313
G3 X72.753 Y59.116 I1.891 J8.775
G1 X72.79 Y59.137
X72.821 Y59.165
G3 X72.706 Y59.515 I-0.131 J0.151
G1 X70.751 Y59.679
G3 X70.683 Y59.286 I-0.017 J-0.199
G2 X71.258 Y58.963 I-0.113 J-0.875
G3 X71.975 Y58.627 I0.678 J0.513
G1 X72.113 Y58.689
X72.227 Y58.786
G3 X72.121 Y59.103 I-0.157 J0.124
G1 X71.472 Y59.276
G3 X71.259 Y58.965 I-0.051 J-0.193
G2 X71.5 Y58.475 I-0.941 J-0.767
G1 X71.618 Y58.396
X71.755 Y58.366
X71.893 Y58.388
X72.012 Y58.461
X72.096 Y58.573
G3 X72.109 Y58.805 I-0.305 J0.134
X71.452 Y58.617 I-0.327 J-0.101
G1 X71.477 Y58.536
X71.53 Y58.342
X71.553 Y58.271
X71.652 Y58.199
X71.773 Y58.176
X71.891 Y58.208
X71.984 Y58.289
X72.032 Y58.401
G3 X72.027 Y58.479 I-0.184 J0.028
X72.021 Y58.499 I-0.179 J-0.05
X71.53 Y58.342 I-0.239 J-0.097
X71.612 Y58.055 I2.276 J0.5
G1 X71.63 Y58.05
X71.656 Y58.046
G3 X71.663 Y58.152 I0.004 J0.053
X71.637 Y58.147 I-0.004 J-0.053
X71.603 Y58.076 I0.027 J-0.056
G1 X71.619 Y58.043
X71.639 Y58.015
X71.658 Y57.996
X71.693 Y57.973
X71.72 Y57.96
X71.749 Y57.95
G3 X71.893 Y58.029 I0.014 J0.144
X71.635 Y58.158 I-0.129 J0.065
X71.658 Y57.996 I0.129 J-0.065
G1 X71.677 Y57.981
X71.696 Y57.969
X71.72 Y57.958
X71.749 Y57.95
X71.778 Y57.946
X71.807
X71.836 Y57.951
X71.866 Y57.961
X71.887 Y57.971
X71.909 Y57.984
X71.93 Y58.002
X71.951 Y58.026
X71.969 Y58.051
X71.982 Y58.076
X71.993 Y58.105
X71.999 Y58.133
X72. Y58.165
Y58.168
X71.996 Y58.193
X71.993 Y58.218
X71.991 Y58.243
G2 X72.022 Y58.526 I0.826 J0.054
X72.056 Y58.592 I0.192 J-0.055
G1 X72.337 Y58.957
G2 X72.392 Y59.007 I0.158 J-0.122
X72.658 Y59.109 I0.425 J-0.71
X72.732 Y59.12 I0.159 J-0.812
G1 X72.735 Y59.121
G2 X73.565 Y59.159 I0.585 J-3.645
G1 X102.727
G2 X103.321 Y59.116 I0.125 J-2.401
G3 X104.81 Y59.094 I1.118 J25.527
G1 X104.896 Y59.122
X104.975 Y59.162
G3 X104.863 Y59.527 I-0.113 J0.165
G1 X103.229 Y59.535
G3 X103.174 Y59.142 I-0.001 J-0.2
G2 X103.794 Y58.777 I-0.212 J-1.07
G3 X104.235 Y58.597 I0.519 J0.639
G1 X104.394 Y58.623
X104.535 Y58.701
X104.64 Y58.823
G3 X104.494 Y59.118 I-0.175 J0.097
G1 X103.868 Y59.21
G3 X103.686 Y58.882 I-0.029 J-0.198
G1 X103.792 Y58.767
X103.802 Y58.752
X103.906 Y58.58
X103.91 Y58.569
X103.968 Y58.431
X104.091 Y58.362
X104.23 Y58.346
X104.365 Y58.385
X104.475 Y58.473
X104.542 Y58.597
G3 X104.552 Y58.674 I-0.301 J0.081
X104.532 Y58.789 I-0.312 J0.003
X103.91 Y58.569 I-0.308 J-0.117
G1 X103.964 Y58.421
X103.979 Y58.342
X103.996 Y58.269
X104.088 Y58.191
X104.204 Y58.161
X104.322 Y58.183
X104.419 Y58.254
X104.475 Y58.36
G3 X104.476 Y58.438 I-0.177 J0.042
X104.471 Y58.457 I-0.178 J-0.036
X103.979 Y58.42 I-0.242 J-0.077
Y58.342 I0.251 J-0.04
X104.018 Y58.076 I1.572 J0.093
X104.215 Y58.192 I0.099 J0.058
X104.042 Y58.222 I-0.099 J-0.058
X104.027 Y58.206 I0.074 J-0.088
X104.001 Y58.133 I0.09 J-0.073
G1 X104.007 Y58.105
X104.018 Y58.076
X104.032 Y58.05
X104.051 Y58.024
X104.064 Y58.008
X104.08 Y57.993
X104.095 Y57.982
X104.11 Y57.972
X104.134 Y57.961
X104.157 Y57.953
X104.18 Y57.948
X104.202 Y57.946
X104.225
X104.255 Y57.951
X104.285 Y57.961
X104.313 Y57.974
X104.341 Y57.995
X104.361 Y58.015
X104.376 Y58.035
X104.388 Y58.055
X104.397 Y58.076
X104.46 Y58.306
X104.509 Y58.485
Y58.488
X104.512 Y58.513
X104.515 Y58.538
X104.519 Y58.563
G2 X104.552 Y58.693 I0.792 J-0.134
X104.575 Y58.739 I0.189 J-0.066
G1 X104.744 Y58.991
G2 X104.777 Y59.029 I0.166 J-0.111
X104.883 Y59.109 I0.534 J-0.6
X104.951 Y59.147 I0.427 J-0.68
G1 X104.952
X105.032 Y59.198
X105.092 Y59.228
G2 X105.982 Y59.212 I0.425 J-1.102
G3 X108.005 Y59.094 I1.746 J12.6
G1 X108.512 Y59.088
X109.527 Y59.085
X116.122 Y59.083
X119.673 Y59.082
X119.926 Y59.074
X120.17 Y59.005
X120.39 Y58.878
X120.761 Y58.532
X120.994 Y58.081
X121.129 Y57.592
G2 X121.281 Y55.064 I-14.367 J-2.134
G1 X121.289 Y54.557
X121.292 Y53.542
Y49.991
X121.277 Y4.175
X121.279 Y4.133
G2 X121.498 Y3.244 I-14.65 J-4.087
X120.362 Y2.16 I-1.019 J-0.07
G1 X90.624
G3 X88.666 Y2.207 I-1.632 J-26.903
G1 X88.587 Y2.183
X88.513 Y2.149
G3 X88.618 Y1.779 I0.105 J-0.17
G1 X90.35 Y1.772
G3 X90.393 Y2.168 I0.001 J0.2
G2 X89.71 Y2.538 I0.131 J1.061
G3 X89.257 Y2.715 I-0.538 J-0.709
G1 X89.097 Y2.687
X88.957 Y2.607
X88.853 Y2.483
G3 X89.003 Y2.19 I0.176 J-0.095
G1 X89.637 Y2.108
G3 X89.817 Y2.434 I0.026 J0.198
G1 X89.69 Y2.576
X89.681 Y2.589
X89.636 Y2.667
X89.587 Y2.755
X89.546 Y2.852
X89.423 Y2.931
X89.279 Y2.955
X89.137 Y2.919
X89.022 Y2.829
X88.952 Y2.701
G3 X88.976 Y2.526 I0.223 J-0.059
X89.588 Y2.705 I0.283 J0.166
X89.575 Y2.782 I-0.328 J-0.013
G1 X89.537 Y2.898
X89.53 Y2.932
X89.511 Y3.005
X89.435 Y3.134
X89.316 Y3.174
X89.192 Y3.157
X89.089 Y3.085
X89.029 Y2.975
G3 X89.019 Y2.911 I0.438 J-0.103
G1 X89.018 Y2.898
G3 X89.532 Y2.854 I0.258 J-0.009
X89.53 Y2.932 I-0.256 J0.034
G1 X89.513 Y3.013
X89.501 Y3.128
X89.499 Y3.186
X89.493 Y3.214
X89.482 Y3.243
X89.471 Y3.264
X89.449 Y3.296
X89.435 Y3.311
X89.403 Y3.338
X89.392 Y3.345
G3 X89.249 Y3.311 I-0.049 J-0.109
X89.435 Y3.163 I0.093 J-0.074
Y3.311 I-0.093 J0.074
G1 X89.419 Y3.327
X89.392 Y3.345
X89.366 Y3.358
X89.356 Y3.362
X89.327 Y3.37
X89.298 Y3.373
X89.27 Y3.372
X89.241 Y3.367
X89.215 Y3.358
X89.192 Y3.348
X89.17 Y3.333
X89.144 Y3.31
X89.126 Y3.286
X89.113 Y3.265
X89.103 Y3.243
X89.04 Y3.013
X88.977 Y2.782
X88.976 Y2.779
G2 X88.937 Y2.591 I-0.735 J0.056
X88.909 Y2.539 I-0.189 J0.066
G1 X88.725 Y2.287
G2 X88.684 Y2.245 I-0.161 J0.118
X88.516 Y2.151 I-0.443 J0.59
G1 X88.514 Y2.15
G2 X88.189 Y2.021 I-0.546 J0.907
G1 X87.872 Y2.012
G3 X85.722 Y2.194 I-1.751 J-7.882
G1 X85.685 Y2.178
X85.653 Y2.154
G3 X85.762 Y1.798 I0.124 J-0.157
G1 X87.67 Y1.653
G3 X87.742 Y2.044 I0.015 J0.199
G2 X87.119 Y2.491 I0.3 J1.077
G3 X86.664 Y2.692 I-0.68 J-0.923
G1 X86.52 Y2.682
X86.386 Y2.628
X86.274 Y2.536
G3 X86.385 Y2.214 I0.154 J-0.127
G1 X87.006 Y2.074
G3 X87.217 Y2.379 I0.044 J0.195
G1 X87.166 Y2.451
X87.107 Y2.552
X87.081 Y2.61
X87.058 Y2.667
X87.001 Y2.831
X86.887 Y2.913
X86.75 Y2.946
X86.61 Y2.926
X86.489 Y2.855
X86.402 Y2.743
G3 X86.385 Y2.507 I0.307 J-0.141
X87.051 Y2.689 I0.331 J0.097
G1 X87.023 Y2.782
X86.97 Y2.977
X86.947 Y3.048
X86.848 Y3.119
X86.727 Y3.14
X86.609 Y3.108
X86.517 Y3.028
X86.467 Y2.916
G3 X86.48 Y2.816 I0.181 J-0.029
X86.97 Y2.977 I0.239 J0.101
X86.873 Y3.298 I-1.039 J-0.14
X86.844 Y3.288 I-0.011 J-0.017
G1 X86.833 Y3.276
G3 X86.87 Y3.188 I0.019 J-0.044
X86.898 Y3.243 I-0.019 J0.044
G1 X86.888 Y3.27
X86.873 Y3.298
X86.852 Y3.325
X86.836 Y3.34
X86.82 Y3.352
X86.791 Y3.369
X86.774 Y3.363
X86.768 Y3.358
G3 X86.811 Y3.273 I0.022 J-0.043
X86.82 Y3.352 I-0.022 J0.043
G1 X86.811 Y3.358
X86.785 Y3.372
X86.758 Y3.382
X86.731 Y3.387
X86.705 Y3.389
X86.677 Y3.387
X86.649 Y3.382
X86.621 Y3.373
X86.59 Y3.356
X86.576 Y3.346
X86.561 Y3.333
X86.546 Y3.316
X86.533 Y3.3
X86.517 Y3.271
X86.507 Y3.243
X86.501 Y3.214
X86.498 Y3.154
Y3.151
X86.502 Y3.126
X86.504 Y3.101
X86.506 Y3.076
G2 X86.475 Y2.792 I-0.829 J-0.052
X86.44 Y2.724 I-0.192 J0.056
G1 X86.15 Y2.355
G2 X86.093 Y2.305 I-0.157 J0.123
X85.826 Y2.207 I-0.416 J0.719
X85.75 Y2.197 I-0.149 J0.817
G1 X85.748 Y2.196
X85.668 Y2.176
X85.552 Y2.163
X85.437 Y2.16
X69.415
X55.583
G3 X53.674 Y2.21 I-1.481 J-20.086
G1 X53.598 Y2.19
X53.526 Y2.158
G3 X53.627 Y1.786 I0.102 J-0.172
G1 X55.305 Y1.78
G3 X55.353 Y2.175 I0.001 J0.2
G2 X54.702 Y2.537 I0.184 J1.097
G1 X54.57 Y2.611
X54.445 Y2.671
X54.281 Y2.714
X54.112 Y2.694
X53.963 Y2.613
X53.854 Y2.482
G3 X54.002 Y2.178 I0.17 J-0.105
G1 X54.64 Y2.107
G3 X54.813 Y2.437 I0.022 J0.199
G1 X54.776 Y2.476
X54.708 Y2.552
X54.63 Y2.667
X54.589 Y2.759
X54.52 Y2.892
X54.399 Y2.957
X54.263 Y2.971
X54.132 Y2.932
X54.026 Y2.846
X53.96 Y2.727
G3 X53.947 Y2.649 I0.335 J-0.094
X53.948 Y2.615 I0.348 J-0.017
X54.315 Y2.3 I0.333 J0.017
X54.61 Y2.684 I-0.035 J0.332
X54.589 Y2.759 I-0.329 J-0.052
G1 X54.578 Y2.782
X54.536 Y2.898
X54.521 Y2.977
X54.504 Y3.05
X54.412 Y3.127
X54.296 Y3.158
X54.178 Y3.135
X54.081 Y3.064
X54.025 Y2.958
G3 X54.024 Y2.88 I0.176 J-0.041
X54.028 Y2.861 I0.177 J0.037
X54.521 Y2.977 I0.242 J0.078
G1 X54.484 Y3.244
X54.459 Y3.274
X54.425 Y3.295
G3 X54.328 Y3.073 I-0.049 J-0.111
X54.46 Y3.096 I0.049 J0.111
X54.499 Y3.186 I-0.085 J0.09
G1 X54.493 Y3.214
X54.482 Y3.243
X54.473 Y3.261
X54.461 Y3.28
X54.431 Y3.316
X54.415 Y3.33
X54.398 Y3.342
X54.382 Y3.351
X54.366 Y3.358
X54.341 Y3.367
X54.315 Y3.372
X54.29 Y3.373
X54.265 Y3.372
X54.24 Y3.367
X54.215 Y3.358
X54.2 Y3.352
X54.184 Y3.342
X54.167 Y3.331
X54.15 Y3.316
X54.134 Y3.297
X54.116 Y3.27
X54.103 Y3.243
X54.071 Y3.128
X53.977 Y2.782
X53.976 Y2.779
G2 X53.937 Y2.592 I-0.73 J0.055
X53.911 Y2.542 I-0.189 J0.066
G1 X53.735 Y2.298
G2 X53.696 Y2.257 I-0.162 J0.117
X53.531 Y2.161 I-0.449 J0.578
G1 X53.53 Y2.16
X53.364 Y2.07
X53.278 Y2.042
X53.264 Y2.038
X52.947 Y2.006
G3 X50.742 Y2.199 I-1.9 J-9.058
G1 X50.705 Y2.181
X50.673 Y2.156
G3 X50.78 Y1.8 I0.123 J-0.157
G1 X52.75 Y1.64
G3 X52.817 Y2.033 I0.016 J0.199
G2 X52.147 Y2.47 I0.154 J0.968
G3 X51.671 Y2.693 I-0.725 J-0.929
G1 X51.522 Y2.683
X51.385 Y2.628
X51.271 Y2.531
G3 X51.377 Y2.213 I0.157 J-0.124
G1 X52.028 Y2.043
G3 X52.241 Y2.354 I0.051 J0.193
G2 X52. Y2.844 I0.941 J0.767
G1 X51.882 Y2.922
X51.745 Y2.953
X51.607 Y2.929
X51.487 Y2.856
X51.403 Y2.744
G3 X51.391 Y2.512 I0.304 J-0.133
X52.048 Y2.702 I0.326 J0.102
G1 X52.023 Y2.782
X51.97 Y2.977
X51.947 Y3.048
X51.848 Y3.12
X51.727 Y3.142
X51.609 Y3.11
X51.516 Y3.03
X51.468 Y2.917
G3 X51.472 Y2.839 I0.183 J-0.028
X51.479 Y2.819 I0.178 J0.05
X51.977 Y2.899 I0.239 J0.098
X51.97 Y2.977 I-0.258 J0.019
G1 X51.889 Y3.264
X51.87 Y3.269
X51.844 Y3.273
G3 X51.837 Y3.167 I-0.004 J-0.053
X51.863 Y3.172 I0.004 J0.053
X51.897 Y3.243 I-0.027 J0.056
G1 X51.881 Y3.276
X51.861 Y3.304
X51.842 Y3.323
X51.807 Y3.345
X51.78 Y3.359
X51.751 Y3.369
G3 X51.607 Y3.29 I-0.014 J-0.144
X51.865 Y3.161 I0.129 J-0.065
X51.842 Y3.323 I-0.129 J0.065
G1 X51.823 Y3.338
X51.804 Y3.349
X51.78 Y3.361
X51.751 Y3.369
X51.722 Y3.373
X51.693
X51.664 Y3.368
X51.634 Y3.358
X51.613 Y3.348
X51.591 Y3.335
X51.57 Y3.317
X51.549 Y3.293
X51.531 Y3.268
X51.518 Y3.243
X51.507 Y3.214
X51.501 Y3.186
X51.5 Y3.154
Y3.151
X51.504 Y3.126
X51.507 Y3.101
X51.509 Y3.076
G2 X51.478 Y2.791 I-0.83 J-0.054
X51.443 Y2.723 I-0.192 J0.055
G1 X51.147 Y2.347
G2 X51.088 Y2.297 I-0.157 J0.124
X50.744 Y2.192 I-0.41 J0.724
G1 X50.742
G2 X49.935 Y2.16 I-0.571 J4.208
G1 X20.773
G2 X20.179 Y2.202 I-0.122 J2.456
G3 X18.673 Y2.214 I-1.024 J-33.828
G1 X18.588 Y2.187
X18.509 Y2.147
G3 X18.623 Y1.782 I0.113 J-0.165
G1 X20.272 Y1.784
G3 X20.326 Y2.177 J0.2
G2 X19.706 Y2.541 I0.212 J1.07
G3 X19.261 Y2.72 I-0.557 J-0.742
G1 X19.103 Y2.692
X18.963 Y2.614
X18.858 Y2.493
G3 X19.005 Y2.198 I0.175 J-0.097
G1 X19.633 Y2.109
G3 X19.814 Y2.437 I0.028 J0.198
G1 X19.708 Y2.552
X19.698 Y2.566
X19.594 Y2.739
X19.59 Y2.75
X19.532 Y2.888
X19.409 Y2.956
X19.269 Y2.972
X19.134 Y2.932
X19.025 Y2.844
X18.958 Y2.72
G3 X18.968 Y2.528 I0.299 J-0.08
X19.59 Y2.75 I0.308 J0.119
G1 X19.536 Y2.898
X19.521 Y2.977
X19.504 Y3.05
X19.412 Y3.127
X19.296 Y3.158
X19.178 Y3.135
X19.081 Y3.063
X19.024 Y2.957
G3 X19.023 Y2.879 I0.176 J-0.041
X19.028 Y2.861 I0.177 J0.037
X19.521 Y2.977 I0.242 J0.078
G1 X19.484 Y3.244
X19.458 Y3.273
X19.423 Y3.292
G3 X19.344 Y3.077 I-0.039 J-0.108
X19.458 Y3.097 I0.039 J0.108
X19.499 Y3.186 I-0.074 J0.088
G1 X19.493 Y3.214
X19.482 Y3.243
X19.468 Y3.269
X19.449 Y3.295
X19.436 Y3.311
X19.42 Y3.326
X19.405 Y3.337
X19.39 Y3.347
X19.366 Y3.358
X19.343 Y3.366
X19.32 Y3.371
X19.298 Y3.373
X19.275
X19.245 Y3.368
X19.215 Y3.358
X19.187 Y3.344
X19.159 Y3.324
X19.139 Y3.304
X19.124 Y3.284
X19.112 Y3.264
X19.103 Y3.243
X19.04 Y3.013
X18.977 Y2.782
X18.976 Y2.779
G2 X18.938 Y2.592 I-0.729 J0.054
X18.911 Y2.541 I-0.189 J0.066
G1 X18.732 Y2.294
G2 X18.692 Y2.253 I-0.162 J0.117
X18.526 Y2.157 I-0.445 J0.581
G1 X18.524 Y2.156
X18.468 Y2.12
X18.408 Y2.091
X18.353 Y2.065
X18.338 Y2.06
X18.007 Y2.004
G2 X17.518 Y2.106 I0.113 J1.753
G3 X15.494 Y2.213 I-1.741 J-13.751
G1 X14.987 Y2.219
X13.972 Y2.222
X4.334 Y2.223
X4.095 Y2.309
X3.884 Y2.45
X3.527 Y2.811
X3.308 Y3.268
G2 X3.053 Y5.274 I6.786 J1.88
X3.026 Y7.81 I71.126 J2.03
G1 X3.024 Y11.361
Y54.197
X3.023 Y54.239
X3.017 Y54.28
X3.008 Y54.32
X2.208 Y57.262
G3 X2.171 Y57.33 I-0.191 J-0.059
G1 X2.138 Y57.37 Z0.007
X2.107 Y57.407 Z0.027
X2.08 Y57.439 Z0.059
X2.06 Y57.464 Z0.1
X2.047 Y57.479 Z0.149
X2.043 Y57.484 Z0.2
G0 Z8.
X17.441 Y2.004
Z0.4
G1 Z0.2 F1000.
X17.448 Y2.003 Z0.149
X17.468 Y2.001 Z0.1
X17.499 Y1.998 Z0.059
X17.54 Y1.994 Z0.027
X17.588 Y1.99 Z0.007
X17.64 Y1.985 Z0.
G3 X17.661 Y2.061 I0.004 J0.04
G2 X17.147 Y2.458 I0.459 J1.126
G3 X16.26 Y2.836 I-1.279 J-1.765
X14.33 Y3.007 I-1.737 J-8.675
G1 X13.823 Y3.016
X13.316 Y3.019
X12.301 Y3.022
X5.199 Y3.023
X4.955 Y3.093
X4.737 Y3.222
X4.55 Y3.394
X4.243 Y3.797
X4.058 Y4.269
G2 X3.848 Y6.283 I8.3 J1.882
X3.825 Y8.819 I88.861 J2.07
G1 X3.824 Y13.892
Y51.256
X3.823 Y51.297
X3.817 Y51.338
X3.808 Y51.378
X3.008 Y54.32
G3 X2.971 Y54.389 I-0.191 J-0.059
G1 X2.938 Y54.428 Z0.007
X2.907 Y54.465 Z0.027
X2.88 Y54.497 Z0.059
X2.86 Y54.522 Z0.1
X2.847 Y54.537 Z0.149
X2.843 Y54.542 Z0.2
G0 Z8.
X17.024 Y2.393
Z0.4
G1 Z0.2 F1000.
X17.03 Y2.389 Z0.149
X17.047 Y2.379 Z0.1
X17.074 Y2.362 Z0.059
X17.11 Y2.34 Z0.027
X17.151 Y2.315 Z0.007
X17.195 Y2.288 Z0.
G3 X17.247 Y2.346 I0.021 J0.034
G2 X17. Y2.844 I0.921 J0.766
G3 X16.24 Y3.433 I-1.237 J-0.811
X14.781 Y3.753 I-1.701 J-4.263
X11.231 Y3.822 I-2.788 J-52.538
G1 X6.158 Y3.823
X5.907 Y3.861
X5.672 Y3.956
X5.466 Y4.103
X5.117 Y4.472
X4.903 Y4.932
G2 X4.653 Y6.939 I6.991 J1.889
X4.626 Y9.475 I71.778 J2.043
G1 X4.624 Y13.026
Y48.314
X4.623 Y48.355
X4.617 Y48.396
X4.608 Y48.436
X3.808 Y51.378
G3 X3.771 Y51.447 I-0.191 J-0.059
G1 X3.738 Y51.487 Z0.007
X3.707 Y51.524 Z0.027
X3.68 Y51.555 Z0.059
X3.66 Y51.58 Z0.1
X3.647 Y51.595 Z0.149
X3.643 Y51.601 Z0.2
G0 Z8.
X16.861 Y2.832
Z0.4
G1 Z0.2 F1000.
X16.865 Y2.827 Z0.149
X16.877 Y2.81 Z0.1
X16.895 Y2.784 Z0.059
X16.919 Y2.751 Z0.027
X16.947 Y2.711 Z0.007
X16.977 Y2.669 Z0.
G3 X17.048 Y2.702 I0.033 J0.023
G1 X17.023 Y2.782
X16.881 Y3.307
G3 X16.302 Y3.993 I-1.111 J-0.349
X15.336 Y4.387 I-1.602 J-2.552
X13.359 Y4.595 I-1.922 J-8.748
X6.764 Y4.62 I-4.225 J-248.345
G1 X6.525 Y4.708
X6.313 Y4.847
X5.951 Y5.202
X5.725 Y5.656
G2 X5.456 Y7.66 I6.541 J1.896
X5.424 Y12.733 I157.047 J3.528
G1 Y45.372
X5.423 Y45.413
X5.417 Y45.454
X5.408 Y45.494
X4.608 Y48.436
G3 X4.571 Y48.505 I-0.191 J-0.059
G1 X4.538 Y48.545 Z0.007
X4.507 Y48.582 Z0.027
X4.48 Y48.614 Z0.059
X4.46 Y48.638 Z0.1
X4.447 Y48.653 Z0.149
X4.443 Y48.659 Z0.2
G0 Z8.
X16.698 Y3.442
Z0.4
G1 Z0.2 F1000.
X16.702 Y3.436 Z0.149
X16.713 Y3.42 Z0.1
X16.73 Y3.393 Z0.059
X16.753 Y3.359 Z0.027
X16.78 Y3.319 Z0.007
X16.808 Y3.275 Z0.
G3 X16.881 Y3.307 I0.033 J0.022
G1 X16.693 Y3.998
G3 X15.967 Y4.8 I-1.282 J-0.429
X14.782 Y5.225 I-1.774 J-3.084
X12.255 Y5.405 I-2.244 J-13.673
X7.69 Y5.422 I-3.148 J-225.252
G1 X7.441 Y5.472
X7.213 Y5.582
X7.015 Y5.741
X6.686 Y6.128
X6.486 Y6.594
G2 X6.252 Y8.603 I7.534 J1.895
X6.226 Y11.14 I76.273 J2.05
G1 X6.224 Y14.691
Y42.43
X6.223 Y42.471
X6.217 Y42.512
X6.208 Y42.553
X5.408 Y45.494
G3 X5.371 Y45.563 I-0.191 J-0.059
G1 X5.338 Y45.603 Z0.007
X5.307 Y45.64 Z0.027
X5.28 Y45.672 Z0.059
X5.26 Y45.696 Z0.1
X5.247 Y45.712 Z0.149
X5.243 Y45.717 Z0.2
G0 Z8.
X16.51 Y4.133
Z0.4
G1 Z0.2 F1000.
X16.514 Y4.128 Z0.149
X16.525 Y4.111 Z0.1
X16.542 Y4.084 Z0.059
X16.565 Y4.05 Z0.027
X16.592 Y4.01 Z0.007
X16.621 Y3.967 Z0.
G3 X16.693 Y3.998 I0.033 J0.022
G1 X16.491 Y4.741
G3 X15.93 Y5.447 I-1.202 J-0.378
X14.56 Y5.999 I-1.967 J-2.903
X12.036 Y6.201 I-2.303 J-12.941
X8.485 Y6.221 I-2.614 J-143.947
G1 X8.238 Y6.277
X8.01 Y6.389
X7.814 Y6.55
X7.486 Y6.938
X7.286 Y7.404
G2 X7.052 Y9.413 I7.549 J1.897
X7.026 Y11.95 I76.015 J2.052
G1 X7.024 Y15.501
Y39.488
X7.023 Y39.53
X7.017 Y39.57
X7.008 Y39.611
X6.208 Y42.553
G3 X6.171 Y42.621 I-0.191 J-0.059
G1 X6.138 Y42.661 Z0.007
X6.107 Y42.698 Z0.027
X6.08 Y42.73 Z0.059
X6.06 Y42.754 Z0.1
X6.047 Y42.77 Z0.149
X6.043 Y42.775 Z0.2
G0 Z8.
X16.308 Y4.876
Z0.4
G1 Z0.2 F1000.
X16.312 Y4.871 Z0.149
X16.323 Y4.854 Z0.1
X16.34 Y4.827 Z0.059
X16.363 Y4.793 Z0.027
X16.39 Y4.753 Z0.007
X16.418 Y4.71 Z0.
G3 X16.491 Y4.741 I0.033 J0.022
G1 X16.289 Y5.482
G3 X15.563 Y6.312 I-1.356 J-0.453
X14.396 Y6.768 I-1.868 J-3.065
X11.874 Y6.995 I-2.362 J-12.094
X9.338 Y7.021 I-2.109 J-83.8
G1 X9.089 Y7.067
X8.856 Y7.169
X8.653 Y7.321
X8.312 Y7.696
X8.102 Y8.158
G2 X7.854 Y10.165 I7.128 J1.898
X7.824 Y15.745 I188.502 J3.794
G1 Y36.546
X7.823 Y36.588
X7.817 Y36.629
X7.808 Y36.669
X7.008 Y39.611
G3 X6.971 Y39.679 I-0.191 J-0.059
G1 X6.938 Y39.719 Z0.007
X6.907 Y39.756 Z0.027
X6.88 Y39.788 Z0.059
X6.86 Y39.813 Z0.1
X6.847 Y39.828 Z0.149
X6.843 Y39.833 Z0.2
G0 Z8.
X16.106 Y5.618
Z0.4
G1 Z0.2 F1000.
X16.11 Y5.612 Z0.149
X16.121 Y5.595 Z0.1
X16.139 Y5.569 Z0.059
X16.162 Y5.534 Z0.027
X16.188 Y5.494 Z0.007
X16.217 Y5.451 Z0.
G3 X16.289 Y5.482 I0.033 J0.022
G1 X16.083 Y6.238
G3 X15.366 Y7.077 I-1.373 J-0.449
X14.218 Y7.542 I-1.893 J-3.024
X11.699 Y7.79 I-2.406 J-11.515
G1 X11.192 Y7.805
X10.684 Y7.812
X10.177 Y7.816
X9.926 Y7.855
X9.691 Y7.948
X9.483 Y8.094
X9.132 Y8.46
X8.914 Y8.918
G2 X8.656 Y10.924 I6.833 J1.9
X8.624 Y15.997 I162.095 J3.533
G1 Y33.605
X8.623 Y33.646
X8.617 Y33.687
X8.608 Y33.727
X7.808 Y36.669
G3 X7.771 Y36.738 I-0.191 J-0.059
G1 X7.738 Y36.777 Z0.007
X7.707 Y36.814 Z0.027
X7.68 Y36.846 Z0.059
X7.66 Y36.871 Z0.1
X7.647 Y36.886 Z0.149
X7.643 Y36.891 Z0.2
G0 Z8.
X15.901 Y6.374
Z0.4
G1 Z0.2 F1000.
X15.904 Y6.368 Z0.149
X15.916 Y6.351 Z0.1
X15.933 Y6.325 Z0.059
X15.956 Y6.29 Z0.027
X15.983 Y6.25 Z0.007
X16.011 Y6.207 Z0.
G3 X16.083 Y6.238 I0.033 J0.022
G1 X15.864 Y7.045
G3 X15.299 Y7.761 I-1.253 J-0.407
X13.892 Y8.353 I-2.091 J-3.002
X11.372 Y8.589 I-2.435 J-12.425
G1 X10.864 Y8.605
X10.618 Y8.667
X10.394 Y8.786
X10.201 Y8.95
X9.88 Y9.343
X9.683 Y9.81
G2 X9.452 Y11.821 I7.688 J1.902
X9.426 Y14.357 I76.616 J2.058
G1 X9.424 Y17.908
Y30.663
X9.423 Y30.704
X9.417 Y30.745
X9.408 Y30.785
X8.608 Y33.727
G3 X8.571 Y33.796 I-0.191 J-0.059
G1 X8.538 Y33.835 Z0.007
X8.507 Y33.873 Z0.027
X8.48 Y33.904 Z0.059
X8.46 Y33.929 Z0.1
X8.447 Y33.944 Z0.149
X8.443 Y33.95 Z0.2
G0 Z8.
X15.681 Y7.18
Z0.4
G1 Z0.2 F1000.
X15.685 Y7.174 Z0.149
X15.696 Y7.158 Z0.1
X15.714 Y7.131 Z0.059
X15.737 Y7.097 Z0.027
X15.763 Y7.057 Z0.007
X15.792 Y7.013 Z0.
G3 X15.864 Y7.045 I0.033 J0.022
G1 X15.659 Y7.799
G3 X14.933 Y8.644 I-1.395 J-0.464
X13.744 Y9.126 I-1.957 J-3.12
X11.733 Y9.367 I-2.216 J-10.002
G1 X11.485 Y9.424
X11.255 Y9.531
X11.054 Y9.685
X10.714 Y10.062
X10.504 Y10.524
G2 X10.255 Y12.531 I7.125 J1.904
X10.224 Y18.111 I185.288 J3.798
G1 Y27.721
X10.223 Y27.762
X10.217 Y27.803
X10.208 Y27.843
X9.408 Y30.785
G3 X9.371 Y30.854 I-0.191 J-0.059
G1 X9.338 Y30.894 Z0.007
X9.307 Y30.931 Z0.027
X9.28 Y30.963 Z0.059
X9.26 Y30.987 Z0.1
X9.247 Y31.002 Z0.149
X9.243 Y31.008 Z0.2
G0 Z8.
X15.476 Y7.935
Z0.4
G1 Z0.2 F1000.
X15.48 Y7.929 Z0.149
X15.491 Y7.912 Z0.1
X15.509 Y7.886 Z0.059
X15.532 Y7.851 Z0.027
X15.558 Y7.811 Z0.007
X15.587 Y7.768 Z0.
G3 X15.659 Y7.799 I0.033 J0.022
G1 X15.44 Y8.606
G3 X14.875 Y9.327 I-1.268 J-0.409
X13.453 Y9.934 I-2.128 J-3.018
G1 X12.956 Y10.033
X12.452 Y10.097
X12.211 Y10.176
X11.991 Y10.302
X11.612 Y10.638
X11.365 Y11.082
X11.218 Y11.567
G2 X11.045 Y13.586 I10.508 J1.913
X11.025 Y16.122 I105.112 J2.1
G1 X11.024 Y21.195
Y24.779
X11.023 Y24.82
X11.017 Y24.861
X11.008 Y24.902
X10.208 Y27.843
G3 X10.171 Y27.912 I-0.191 J-0.059
G1 X10.138 Y27.952 Z0.007
X10.107 Y27.989 Z0.027
X10.08 Y28.021 Z0.059
X10.06 Y28.045 Z0.1
X10.047 Y28.061 Z0.149
X10.043 Y28.066 Z0.2
G0 Z8.
X15.257 Y8.741
Z0.4
G1 Z0.2 F1000.
X15.261 Y8.735 Z0.149
X15.272 Y8.719 Z0.1
X15.289 Y8.692 Z0.059
X15.312 Y8.658 Z0.027
X15.339 Y8.617 Z0.007
X15.367 Y8.574 Z0.
G3 X15.44 Y8.606 I0.033 J0.022
G1 X15.24 Y9.338
G3 X14.551 Y10.189 I-1.397 J-0.427
G1 X14.354 Y10.315
X14.114 Y10.435
X13.808 Y10.559
X13.324 Y10.711
X13.084 Y10.794
X12.861 Y10.913
X12.467 Y11.233
X12.203 Y11.667
X12.042 Y12.148
G2 X11.849 Y14.164 I9.496 J1.928
X11.823 Y21.919 I406.945 J5.214
G1 X11.808 Y21.96
X11.008 Y24.902
G3 X10.971 Y24.97 I-0.191 J-0.059
G1 X10.938 Y25.01 Z0.007
X10.907 Y25.047 Z0.027
X10.88 Y25.079 Z0.059
X10.86 Y25.103 Z0.1
X10.847 Y25.119 Z0.149
X10.843 Y25.124 Z0.2
G0 Z8.
X15.058 Y9.473
Z0.4
G1 Z0.2 F1000.
X15.062 Y9.468 Z0.149
X15.073 Y9.451 Z0.1
X15.09 Y9.425 Z0.059
X15.113 Y9.39 Z0.027
X15.14 Y9.35 Z0.007
X15.168 Y9.307 Z0.
G3 X15.24 Y9.338 I0.033 J0.022
G1 X15.018 Y10.155
G3 X14.266 Y11.025 I-1.444 J-0.488
G1 X13.832 Y11.288
X13.421 Y11.586
X13.118 Y11.992
X12.919 Y12.459
G2 X12.66 Y14.465 I7.363 J1.971
X12.623 Y18.977 I144.796 J3.452
G1 X12.608 Y19.017
G3 X12.571 Y19.086 I-0.191 J-0.059
G1 X12.538 Y19.126 Z0.007
X12.507 Y19.163 Z0.027
X12.481 Y19.195 Z0.059
X12.46 Y19.219 Z0.1
X12.448 Y19.234 Z0.149
X12.443 Y19.24 Z0.2
G0 Z8.
X14.836 Y10.29
Z0.4
G1 Z0.2 F1000.
X14.839 Y10.285 Z0.149
X14.85 Y10.268 Z0.1
X14.868 Y10.242 Z0.059
X14.891 Y10.207 Z0.027
X14.918 Y10.167 Z0.007
X14.946 Y10.124 Z0.
G3 X15.018 Y10.155 I0.033 J0.022
G1 X14.799 Y10.961
X14.752 Y11.104
X14.684 Y11.237
X14.58 Y11.398
X14.272 Y11.801
X13.989 Y12.222
X13.782 Y12.685
G2 X13.473 Y14.684 I6.74 J2.063
X13.436 Y15.953 I28.35 J1.473
G1 X13.429 Y15.992
X13.421 Y16.03
G3 X13.383 Y16.098 I-0.191 J-0.059
G1 X13.35 Y16.138 Z0.007
X13.32 Y16.175 Z0.027
X13.293 Y16.207 Z0.059
X13.273 Y16.232 Z0.1
X13.26 Y16.247 Z0.149
X13.256 Y16.252 Z0.2
G0 Z8.
X14.616 Y11.097
Z0.4
G1 Z0.2 F1000.
X14.62 Y11.091 Z0.149
X14.631 Y11.074 Z0.1
X14.649 Y11.048 Z0.059
X14.672 Y11.013 Z0.027
X14.698 Y10.973 Z0.007
X14.727 Y10.93 Z0.
G3 X14.799 Y10.961 I0.033 J0.022
G1 X11.808 Y21.96
G3 X11.771 Y22.028 I-0.191 J-0.059
G1 X11.738 Y22.068 Z0.007
X11.707 Y22.105 Z0.027
X11.68 Y22.137 Z0.059
X11.66 Y22.162 Z0.1
X11.647 Y22.177 Z0.149
X11.643 Y22.182 Z0.2
G0 Z8.
X106.059 Y59.315
Z0.4
G1 Z0.2 F1000.
X106.052 Y59.316 Z0.149
X106.032 Y59.318 Z0.1
X106.001 Y59.321 Z0.059
X105.96 Y59.325 Z0.027
X105.912 Y59.329 Z0.007
X105.86 Y59.334 Z0.
G3 X105.839 Y59.258 I-0.004 J-0.04
G2 X106.353 Y58.861 I-0.459 J-1.126
G3 X107.219 Y58.478 I1.3 J1.764
X109.129 Y58.301 I1.746 J8.482
G1 X109.637 Y58.291
X110.144 Y58.288
X111.158 Y58.285
X116.739 Y58.283
X118.768
X119.021 Y58.282
X119.271 Y58.239
X119.502 Y58.132
X119.701 Y57.976
X120.033 Y57.592
X120.235 Y57.127
G2 X120.467 Y55.117 I-7.48 J-1.88
X120.491 Y52.581 I-77.906 J-2.008
G1 Y48.522
X120.478 Y7.113
X120.48 Y7.072
X120.485 Y7.031
X120.494 Y6.991
X121.293 Y4.052
G3 X121.331 Y3.983 I0.191 J0.059
G1 X121.364 Y3.944 Z0.007
X121.394 Y3.907 Z0.027
X121.421 Y3.875 Z0.059
X121.441 Y3.85 Z0.1
X121.454 Y3.835 Z0.149
X121.458 Y3.83 Z0.2
G0 Z8.
X106.476 Y58.926
Z0.4
G1 Z0.2 F1000.
X106.47 Y58.93 Z0.149
X106.453 Y58.94 Z0.1
X106.426 Y58.957 Z0.059
X106.39 Y58.979 Z0.027
X106.349 Y59.004 Z0.007
X106.305 Y59.031 Z0.
G3 X106.253 Y58.973 I-0.021 J-0.034
G2 X106.5 Y58.475 I-0.921 J-0.766
G3 X107.252 Y57.881 I1.229 J0.784
X108.694 Y57.557 I1.7 J4.185
X112.243 Y57.485 I2.795 J50.229
G1 X118.331 Y57.483
X118.572 Y57.405
X118.788 Y57.273
X119.158 Y56.925
X119.389 Y56.473
X119.523 Y55.984
G2 X119.68 Y53.456 I-14.289 J-2.151
G1 X119.688 Y52.949
X119.691 Y51.934
Y48.891
X119.679 Y10.052
X119.681 Y10.01
X119.686 Y9.969
X119.695 Y9.929
X120.494 Y6.991
G3 X120.531 Y6.922 I0.191 J0.059
G1 X120.565 Y6.882 Z0.007
X120.595 Y6.845 Z0.027
X120.622 Y6.813 Z0.059
X120.642 Y6.789 Z0.1
X120.655 Y6.773 Z0.149
X120.659 Y6.768 Z0.2
G0 Z8.
X106.639 Y58.487
Z0.4
G1 Z0.2 F1000.
X106.635 Y58.492 Z0.149
X106.623 Y58.508 Z0.1
X106.605 Y58.534 Z0.059
X106.581 Y58.568 Z0.027
X106.553 Y58.608 Z0.007
X106.523 Y58.65 Z0.
G3 X106.452 Y58.617 I-0.033 J-0.023
G1 X106.477 Y58.536
X106.619 Y58.012
G3 X107.193 Y57.321 I1.117 J0.343
X108.59 Y56.835 I1.837 J3.029
X111.12 Y56.696 I2.176 J16.536
G1 X114.291 Y56.686
X117.461 Y56.68
X117.709 Y56.623
X117.933 Y56.505
X118.127 Y56.341
X118.448 Y55.949
X118.643 Y55.48
G2 X118.867 Y53.469 I-7.802 J-1.886
X118.89 Y50.932 I-80.041 J-2.017
G1 X118.891 Y46.874
X118.88 Y12.99
X118.882 Y12.949
X118.887 Y12.908
X118.896 Y12.867
X119.695 Y9.929
G3 X119.732 Y9.86 I0.191 J0.059
G1 X119.765 Y9.82 Z0.007
X119.796 Y9.783 Z0.027
X119.823 Y9.752 Z0.059
X119.843 Y9.727 Z0.1
X119.856 Y9.712 Z0.149
X119.86 Y9.706 Z0.2
G0 Z8.
X106.802 Y57.877
Z0.4
G1 Z0.2 F1000.
X106.798 Y57.883 Z0.149
X106.787 Y57.899 Z0.1
X106.77 Y57.926 Z0.059
X106.747 Y57.96 Z0.027
X106.72 Y58. Z0.007
X106.692 Y58.044 Z0.
G3 X106.619 Y58.012 I-0.033 J-0.022
G1 X106.807 Y57.323
G3 X107.356 Y56.62 I1.173 J0.35
X108.683 Y56.092 I1.892 J2.829
X110.701 Y55.91 I1.979 J10.687
X116.535 Y55.883 I3.991 J232.181
G1 X116.786 Y55.849
X117.023 Y55.758
X117.232 Y55.615
X117.586 Y55.252
X117.805 Y54.794
G2 X118.062 Y52.788 I-6.805 J-1.891
X118.091 Y47.208 I-182.792 J-3.731
G1 X118.081 Y15.928
X118.083 Y15.887
X118.088 Y15.846
X118.097 Y15.806
X118.896 Y12.867
G3 X118.933 Y12.799 I0.191 J0.059
G1 X118.966 Y12.759 Z0.007
X118.997 Y12.722 Z0.027
X119.024 Y12.69 Z0.059
X119.044 Y12.665 Z0.1
X119.057 Y12.65 Z0.149
X119.061 Y12.645 Z0.2
G0 Z8.
X106.99 Y57.186
Z0.4
G1 Z0.2 F1000.
X106.986 Y57.191 Z0.149
X106.975 Y57.208 Z0.1
X106.958 Y57.234 Z0.059
X106.935 Y57.269 Z0.027
X106.908 Y57.309 Z0.007
X106.879 Y57.352 Z0.
G3 X106.807 Y57.321 I-0.033 J-0.022
G1 X107.009 Y56.578
G3 X107.561 Y55.87 I1.206 J0.371
X108.901 Y55.315 I2.014 J2.967
X111.424 Y55.107 I2.324 J12.759
X115.736 Y55.084 I3.106 J182.264
G1 X115.987 Y55.048
X116.224 Y54.958
X116.433 Y54.814
X116.785 Y54.449
X117.004 Y53.991
G2 X117.261 Y51.985 I-6.812 J-1.894
X117.29 Y46.405 I-181.152 J-3.734
G1 X117.282 Y18.867
X117.283 Y18.825
X117.289 Y18.784
X117.298 Y18.744
X118.097 Y15.806
G3 X118.134 Y15.737 I0.191 J0.059
G1 X118.167 Y15.697 Z0.007
X118.198 Y15.66 Z0.027
X118.225 Y15.628 Z0.059
X118.245 Y15.604 Z0.1
X118.258 Y15.589 Z0.149
X118.262 Y15.583 Z0.2
G0 Z8.
X107.192 Y56.443
Z0.4
G1 Z0.2 F1000.
X107.188 Y56.448 Z0.149
X107.177 Y56.465 Z0.1
X107.16 Y56.491 Z0.059
X107.137 Y56.526 Z0.027
X107.11 Y56.566 Z0.007
X107.082 Y56.609 Z0.
G3 X107.009 Y56.578 I-0.033 J-0.022
G1 X107.211 Y55.837
G3 X107.752 Y55.12 I1.236 J0.37
X109.065 Y54.548 I2.045 J2.903
X111.586 Y54.313 I2.375 J11.794
X115.137 Y54.285 I2.687 J119.113
G1 X115.377 Y54.201
X115.591 Y54.065
X115.956 Y53.714
X116.185 Y53.261
X116.32 Y52.772
G2 X116.478 Y50.244 I-14.255 J-2.161
G1 X116.487 Y49.737
X116.49 Y48.722
Y46.186
X116.483 Y21.805
X116.484 Y21.764
X116.49 Y21.723
X116.499 Y21.683
X117.298 Y18.744
G3 X117.335 Y18.676 I0.191 J0.059
G1 X117.368 Y18.636 Z0.007
X117.399 Y18.599 Z0.027
X117.426 Y18.567 Z0.059
X117.446 Y18.542 Z0.1
X117.459 Y18.527 Z0.149
X117.463 Y18.522 Z0.2
G0 Z8.
X107.394 Y55.701
Z0.4
G1 Z0.2 F1000.
X107.39 Y55.707 Z0.149
X107.379 Y55.724 Z0.1
X107.361 Y55.75 Z0.059
X107.338 Y55.785 Z0.027
X107.312 Y55.825 Z0.007
X107.283 Y55.868 Z0.
G3 X107.211 Y55.837 I-0.033 J-0.022
G1 X107.417 Y55.081
G3 X107.951 Y54.357 I1.257 J0.369
X109.248 Y53.774 I2.073 J2.875
X111.766 Y53.518 I2.418 J11.278
X114.302 Y53.487 I2.162 J73.77
G1 X114.546 Y53.415
X114.765 Y53.286
X115.139 Y52.944
X115.375 Y52.495
X115.514 Y52.007
G2 X115.677 Y49.48 I-13.799 J-2.162
G1 X115.686 Y48.972
X115.688 Y48.465
X115.69 Y46.943
X115.684 Y24.744
X115.685 Y24.702
X115.691 Y24.661
X115.7 Y24.621
X116.499 Y21.683
G3 X116.536 Y21.614 I0.191 J0.059
G1 X116.569 Y21.574 Z0.007
X116.6 Y21.537 Z0.027
X116.626 Y21.505 Z0.059
X116.647 Y21.481 Z0.1
X116.66 Y21.465 Z0.149
X116.664 Y21.46 Z0.2
G0 Z8.
X107.599 Y54.945
Z0.4
G1 Z0.2 F1000.
X107.596 Y54.951 Z0.149
X107.584 Y54.967 Z0.1
X107.567 Y54.994 Z0.059
X107.544 Y55.028 Z0.027
X107.517 Y55.069 Z0.007
X107.489 Y55.112 Z0.
G3 X107.417 Y55.081 I-0.033 J-0.022
G1 X107.636 Y54.274
G3 X108.195 Y53.553 I1.261 J0.401
X109.574 Y52.96 I2.142 J3.078
X112.094 Y52.718 I2.459 J12.369
G1 X112.602 Y52.703
X113.109 Y52.695
X113.363 Y52.693
X113.613 Y52.656
X113.849 Y52.561
X114.054 Y52.413
X114.398 Y52.04
X114.611 Y51.58
G2 X114.861 Y49.573 I-7.032 J-1.896
X114.89 Y43.993 I-185.869 J-3.736
G1 X114.884 Y27.682
X114.886 Y27.641
X114.892 Y27.6
X114.901 Y27.559
X115.7 Y24.621
G3 X115.737 Y24.552 I0.191 J0.059
G1 X115.77 Y24.513 Z0.007
X115.801 Y24.475 Z0.027
X115.827 Y24.444 Z0.059
X115.848 Y24.419 Z0.1
X115.86 Y24.404 Z0.149
X115.865 Y24.399 Z0.2
G0 Z8.
X107.819 Y54.139
Z0.4
G1 Z0.2 F1000.
X107.815 Y54.144 Z0.149
X107.804 Y54.161 Z0.1
X107.786 Y54.188 Z0.059
X107.763 Y54.222 Z0.027
X107.737 Y54.262 Z0.007
X107.708 Y54.305 Z0.
G3 X107.636 Y54.274 I-0.033 J-0.022
G1 X107.841 Y53.52
G3 X108.381 Y52.791 I1.275 J0.381
X109.717 Y52.19 I2.13 J2.946
X112.234 Y51.924 I2.486 J11.489
G1 X112.742 Y51.907
X112.981 Y51.821
X113.194 Y51.684
X113.558 Y51.33
X113.785 Y50.877
X113.919 Y50.388
G2 X114.077 Y47.86 I-14.322 J-2.163
G1 X114.086 Y47.353
X114.089 Y46.338
Y43.802
X114.085 Y30.62
X114.087 Y30.579
X114.093 Y30.538
X114.102 Y30.498
X114.901 Y27.559
G3 X114.938 Y27.491 I0.191 J0.059
G1 X114.971 Y27.451 Z0.007
X115.002 Y27.414 Z0.027
X115.028 Y27.382 Z0.059
X115.049 Y27.358 Z0.1
X115.061 Y27.342 Z0.149
X115.066 Y27.337 Z0.2
G0 Z8.
X108.024 Y53.384
Z0.4
G1 Z0.2 F1000.
X108.02 Y53.39 Z0.149
X108.009 Y53.407 Z0.1
X107.991 Y53.433 Z0.059
X107.968 Y53.468 Z0.027
X107.942 Y53.508 Z0.007
X107.913 Y53.551 Z0.
G3 X107.841 Y53.52 I-0.033 J-0.022
G1 X108.06 Y52.713
G3 X108.615 Y51.99 I1.272 J0.401
X110.002 Y51.382 I2.177 J3.079
X111.761 Y51.157 I2.098 J9.403
G1 X112.01 Y51.109
X112.244 Y51.011
X112.448 Y50.86
X112.792 Y50.488
X113.006 Y50.028
G2 X113.26 Y48.021 I-6.973 J-1.902
X113.289 Y42.949 I-163.562 J-3.484
G1 X113.286 Y33.559
X113.288 Y33.518
X113.294 Y33.477
X113.303 Y33.436
X114.102 Y30.498
G3 X114.139 Y30.429 I0.191 J0.059
G1 X114.172 Y30.389 Z0.007
X114.203 Y30.352 Z0.027
X114.229 Y30.32 Z0.059
X114.25 Y30.296 Z0.1
X114.262 Y30.281 Z0.149
X114.267 Y30.275 Z0.2
G0 Z8.
X108.243 Y52.578
Z0.4
G1 Z0.2 F1000.
X108.239 Y52.584 Z0.149
X108.228 Y52.6 Z0.1
X108.211 Y52.627 Z0.059
X108.188 Y52.661 Z0.027
X108.161 Y52.701 Z0.007
X108.133 Y52.745 Z0.
G3 X108.06 Y52.713 I-0.033 J-0.022
G1 X108.262 Y51.97
G3 X108.951 Y51.113 I1.463 J0.47
X110.58 Y50.515 I2.289 J3.718
G1 X111.082 Y50.436
X111.322 Y50.355
X111.54 Y50.225
X111.915 Y49.883
X112.157 Y49.438
X112.302 Y48.952
G2 X112.47 Y46.932 I-10.753 J-1.912
X112.489 Y44.396 I-107.068 J-2.068
G1 X112.488 Y39.323
X112.487 Y36.497
X112.489 Y36.456
X112.495 Y36.415
X112.504 Y36.375
X113.303 Y33.436
G3 X113.34 Y33.368 I0.191 J0.059
G1 X113.373 Y33.328 Z0.007
X113.404 Y33.291 Z0.027
X113.43 Y33.259 Z0.059
X113.451 Y33.234 Z0.1
X113.463 Y33.219 Z0.149
X113.468 Y33.214 Z0.2
G0 Z8.
X108.445 Y51.835
Z0.4
G1 Z0.2 F1000.
X108.441 Y51.841 Z0.149
X108.43 Y51.857 Z0.1
X108.413 Y51.884 Z0.059
X108.39 Y51.918 Z0.027
X108.363 Y51.958 Z0.007
X108.335 Y52.002 Z0.
G3 X108.262 Y51.97 I-0.033 J-0.022
G1 X108.482 Y51.164
G3 X109.186 Y50.309 I1.48 J0.502
X110.442 Y49.792 I2.208 J3.579
G1 X110.661 Y49.664
X111.048 Y49.337
X111.309 Y48.902
X111.471 Y48.421
G2 X111.666 Y46.405 I-9.441 J-1.931
X111.689 Y39.353 I-329.562 J-4.635
G1 X111.705 Y39.313
X112.504 Y36.375
G3 X112.541 Y36.306 I0.191 J0.059
G1 X112.574 Y36.266 Z0.007
X112.605 Y36.229 Z0.027
X112.631 Y36.197 Z0.059
X112.651 Y36.173 Z0.1
X112.664 Y36.157 Z0.149
X112.669 Y36.152 Z0.2
G0 Z8.
X108.664 Y51.029
Z0.4
G1 Z0.2 F1000.
X108.661 Y51.034 Z0.149
X108.65 Y51.051 Z0.1
X108.632 Y51.077 Z0.059
X108.609 Y51.112 Z0.027
X108.582 Y51.152 Z0.007
X108.554 Y51.195 Z0.
G3 X108.482 Y51.164 I-0.033 J-0.022
G1 X108.701 Y50.358
G3 X109.249 Y49.629 I1.289 J0.399
G1 X109.663 Y49.335
X110.07 Y49.032
X110.379 Y48.63
X110.582 Y48.165
G2 X110.852 Y46.16 I-7.112 J-1.978
X110.89 Y42.293 I-113.091 J-3.041
G1 X110.905 Y42.253
G3 X110.942 Y42.185 I0.191 J0.059
G1 X110.975 Y42.145 Z0.007
X111.006 Y42.108 Z0.027
X111.033 Y42.076 Z0.059
X111.053 Y42.051 Z0.1
X111.066 Y42.036 Z0.149
X111.07 Y42.031 Z0.2
G0 Z8.
X108.884 Y50.222
Z0.4
G1 Z0.2 F1000.
X108.88 Y50.228 Z0.149
X108.869 Y50.244 Z0.1
X108.851 Y50.271 Z0.059
X108.828 Y50.306 Z0.027
X108.802 Y50.346 Z0.007
X108.773 Y50.389 Z0.
G3 X108.701 Y50.358 I-0.033 J-0.022
G1 X108.92 Y49.551
X108.967 Y49.409
X109.03 Y49.273
X109.284 Y48.833
X109.542 Y48.397
X109.739 Y47.929
G2 X110.04 Y45.929 I-7.091 J-2.093
G1 X110.063 Y45.401
X110.066 Y45.363
X110.071 Y45.326
X110.079 Y45.289
G3 X110.463 Y45.401 I0.191 J0.059
G1 X109.308 Y49.65
G3 X108.918 Y49.629 I-0.193 J-0.052
X108.92 Y49.551 I0.197 J-0.032
G1 X111.705 Y39.313
X111.719 Y39.287 Z0.007
X111.731 Y39.265 Z0.024
X111.739 Y39.25 Z0.049
X111.742 Y39.244 Z0.079
G0 Z8.
X15.289 Y4.025
Z0.547
G1 Z0.347 F1000.
X15.296 Y4.027 Z0.295
X15.315 Y4.032 Z0.247
X15.346 Y4.041 Z0.205
X15.385 Y4.052 Z0.173
X15.432 Y4.065 Z0.153
X15.482 Y4.079 Z0.147
G3 X16.501 Y4.492 I-1.394 J4.912
G1 X16.558 Y4.525
X16.591 Y4.582
X16.59 Y4.648
X2.215 Y57.508
G2 X2.101 Y58.191 I1.772 J0.648
X3.138 Y59.08 I1.003 J-0.121
G1 X3.829 Y59.081
X32.645
G2 X33.302 Y58.999 I0.142 J-1.533
X33.896 Y57.966 I-0.412 J-0.925
G1 X33.939 Y57.822
X34.042 Y57.752
X34.164 Y57.73
X34.284 Y57.761
X34.381 Y57.838
X34.437 Y57.948
G2 X34.702 Y58.655 I1.979 J-0.338
X35.311 Y59.024 I0.799 J-0.632
X36.045 Y58.882 I0.169 J-1.099
X36.495 Y58.191 I-0.599 J-0.881
G1 X36.572 Y57.912
X36.596 Y57.84
X36.692 Y57.726
X36.81 Y57.704
X36.928 Y57.731
X37.025 Y57.802
X37.086 Y57.906
G2 X37.154 Y58.422 I2.546 J-0.074
X38.005 Y59.076 I0.949 J-0.355
G1 X38.293 Y59.08
X38.409 Y59.081
X67.802
G2 X68.898 Y57.966 I0.087 J-1.011
G1 X68.94 Y57.822
X69.042 Y57.752
X69.164 Y57.731
X69.284 Y57.761
X69.381 Y57.838
X69.437 Y57.948
X69.536 Y58.308
G2 X69.94 Y58.871 I0.964 J-0.264
G1 X70.236 Y59.005
X70.251 Y59.009
X70.553 Y59.039
X70.568 Y59.038
X70.885 Y58.965
G2 X71.487 Y58.214 I-0.393 J-0.933
G1 X71.569 Y57.926
X71.592 Y57.854
X71.69 Y57.741
X71.838 Y57.723
X71.977 Y57.779
X72.072 Y57.894
G3 X72.121 Y58.306 I-3.219 J0.592
G2 X73.104 Y59.081 I0.982 J-0.235
G1 X102.727
G2 X103.502 Y58.882 I0.123 J-1.129
X103.896 Y57.966 I-0.614 J-0.808
G1 X103.939 Y57.822
X104.042 Y57.752
X104.164 Y57.73
X104.284 Y57.761
X104.381 Y57.838
X104.437 Y57.948
X104.534 Y58.304
G2 X105.179 Y58.989 I0.975 J-0.272
X105.823 Y58.988 I0.32 J-1.114
X106.464 Y58.306 I-0.325 J-0.948
G1 X106.81 Y57.039
X121.285 Y3.811
G2 X121.404 Y3.243 I-2.535 J-0.831
X120.362 Y2.239 I-1.006 J0.001
G1 X119.671 Y2.238
X90.855
G2 X90.162 Y2.336 I-0.146 J1.461
X89.604 Y3.353 I0.45 J0.909
G1 X89.561 Y3.497
X89.458 Y3.567
X89.336 Y3.588
X89.216 Y3.558
X89.119 Y3.481
X89.063 Y3.371
G2 X88.798 Y2.664 I-1.979 J0.338
X88.189 Y2.295 I-0.799 J0.632
G1 X87.872 Y2.286
X87.826 Y2.299
X87.541 Y2.388
G2 X87.006 Y3.128 I0.494 J0.92
G1 X86.928 Y3.407
X86.904 Y3.478
X86.808 Y3.593
X86.69 Y3.615
X86.572 Y3.588
X86.475 Y3.517
X86.414 Y3.413
G2 X86.345 Y2.897 I-2.468 J0.065
X85.495 Y2.243 I-0.948 J0.354
G1 X85.207 Y2.239
X85.091 Y2.238
X55.699
G2 X54.602 Y3.353 I-0.087 J1.011
G1 X54.56 Y3.497
X54.458 Y3.567
X54.336 Y3.588
X54.216 Y3.558
X54.119 Y3.481
X54.063 Y3.371
G2 X53.855 Y2.755 I-2.158 J0.383
X53.56 Y2.447 I-0.928 J0.596
G1 X53.264 Y2.314
X53.249 Y2.31
X52.947 Y2.28
X52.932 Y2.281
X52.615 Y2.354
G2 X52.013 Y3.105 I0.393 J0.933
G1 X51.931 Y3.393
X51.908 Y3.465
X51.81 Y3.578
X51.662 Y3.596
X51.523 Y3.54
X51.428 Y3.425
G3 X51.379 Y3.013 I3.22 J-0.592
G2 X50.396 Y2.238 I-0.982 J0.235
G1 X20.773
G2 X19.776 Y2.663 I-0.133 J1.069
X19.603 Y3.353 I0.876 J0.586
G1 X19.561 Y3.497
X19.458 Y3.567
X19.336 Y3.588
X19.216 Y3.558
X19.119 Y3.481
X19.063 Y3.371
X18.965 Y3.013
G2 X18.321 Y2.33 I-0.974 J0.274
G1 X18.007 Y2.278
X17.949 Y2.286
G2 X17.037 Y3.013 I0.031 J0.974
G1 X16.69 Y4.28
X16.59 Y4.648
G3 X16.553 Y4.716 I-0.191 J-0.059
G1 X16.52 Y4.756 Z0.153
X16.489 Y4.793 Z0.173
X16.463 Y4.825 Z0.205
X16.442 Y4.849 Z0.247
X16.43 Y4.865 Z0.295
X16.425 Y4.87 Z0.347
G0 Z8.
X19.473 Y3.467
Z0.547
G1 Z0.347 F1000.
X19.475 Y3.46 Z0.295
X19.479 Y3.441 Z0.247
X19.487 Y3.41 Z0.205
X19.497 Y3.37 Z0.173
X19.509 Y3.323 Z0.153
X19.522 Y3.273 Z0.147
G3 X19.6 Y3.278 I0.039 J0.01
G1 X19.606 Y3.358
X19.62 Y3.438
X19.63 Y3.474
X19.644 Y3.547
X19.63 Y3.621
X19.564 Y3.755
X19.44 Y3.809
X19.306 Y3.798
X19.193 Y3.725
X19.127 Y3.607
X19.063 Y3.371
G3 X19.148 Y3.219 I0.126 J-0.03
X19.63 Y3.474 I0.118 J0.36
G1 X19.687 Y3.704
X19.703 Y3.777
X19.671 Y3.924
X19.572 Y3.995
X19.453 Y4.019
X19.334 Y3.991
X19.238 Y3.917
X19.181 Y3.808
X19.127 Y3.607
G3 X19.21 Y3.457 I0.124 J-0.029
X19.687 Y3.704 I0.119 J0.354
G1 X19.743 Y3.912
X19.759 Y3.986
X19.724 Y4.131
X19.625 Y4.201
X19.506 Y4.224
X19.388 Y4.196
X19.293 Y4.121
X19.237 Y4.014
X19.181 Y3.808
G3 X19.269 Y3.658 I0.123 J-0.029
X19.743 Y3.912 I0.108 J0.368
G1 X19.802 Y4.129
X19.818 Y4.202
X19.776 Y4.346
X19.676 Y4.412
X19.558 Y4.433
X19.442 Y4.403
X19.349 Y4.328
X19.294 Y4.221
X19.237 Y4.014
G3 X19.33 Y3.862 I0.123 J-0.029
X19.802 Y4.129 I0.094 J0.383
G1 X19.851 Y4.309
X19.867 Y4.382
X19.856 Y4.457
X19.794 Y4.593
X19.671 Y4.649
X19.536 Y4.639
X19.422 Y4.567
X19.356 Y4.449
X19.294 Y4.221
G3 X19.373 Y4.074 I0.123 J-0.029
X19.851 Y4.309 I0.127 J0.344
G1 X19.915 Y4.545
X19.931 Y4.618
X19.899 Y4.765
X19.8 Y4.836
X19.681 Y4.86
X19.563 Y4.832
X19.467 Y4.758
X19.41 Y4.65
X19.356 Y4.449
G3 X19.439 Y4.3 I0.123 J-0.029
X19.915 Y4.545 I0.118 J0.356
G1 X19.966 Y4.733
X19.982 Y4.806
X19.973 Y4.881
X19.912 Y5.018
X19.789 Y5.075
X19.653 Y5.066
X19.539 Y4.994
X19.472 Y4.876
X19.41 Y4.65
G3 X19.487 Y4.503 I0.123 J-0.029
X19.966 Y4.733 I0.133 J0.338
G1 X20.031 Y4.971
X20.047 Y5.044
X20.015 Y5.191
X19.917 Y5.263
X19.797 Y5.287
X19.679 Y5.259
X19.583 Y5.184
X19.526 Y5.076
X19.472 Y4.876
G3 X19.555 Y4.727 I0.123 J-0.029
X20.031 Y4.971 I0.119 J0.355
G1 X20.094 Y5.202
X20.102 Y5.238
X20.09 Y5.312
X20.026 Y5.448
X19.903 Y5.504
X19.769 Y5.494
X19.655 Y5.422
X19.588 Y5.305
X19.526 Y5.076
G3 X19.624 Y4.924 I0.123 J-0.029
X20.094 Y5.202 I0.082 J0.398
G1 X20.142 Y5.38
X20.158 Y5.453
X20.148 Y5.528
X20.087 Y5.665
X19.965 Y5.723
X19.83 Y5.716
X19.715 Y5.645
X19.649 Y5.527
X19.588 Y5.305
G3 X19.661 Y5.159 I0.123 J-0.029
X20.142 Y5.38 I0.142 J0.326
G1 X20.209 Y5.626
X20.225 Y5.699
X20.189 Y5.845
X20.091 Y5.915
X19.972 Y5.938
X19.854 Y5.909
X19.759 Y5.835
X19.703 Y5.728
X19.649 Y5.527
G3 X19.734 Y5.377 I0.123 J-0.029
X20.209 Y5.626 I0.115 J0.36
G1 X20.26 Y5.812
X20.276 Y5.886
X20.265 Y5.96
X20.204 Y6.097
X20.081 Y6.153
X19.946 Y6.144
X19.831 Y6.072
X19.765 Y5.954
X19.703 Y5.728
G3 X19.781 Y5.58 I0.123 J-0.029
X20.26 Y5.812 I0.131 J0.34
G1 X20.322 Y6.043
X20.338 Y6.116
X20.31 Y6.263
X20.212 Y6.337
X20.092 Y6.362
X19.973 Y6.335
X19.876 Y6.261
X19.819 Y6.152
X19.765 Y5.954
G3 X19.845 Y5.806 I0.123 J-0.029
X20.322 Y6.043 I0.127 J0.345
G1 X20.376 Y6.238
X20.392 Y6.312
X20.38 Y6.386
X20.318 Y6.522
X20.196 Y6.578
X20.061 Y6.569
X19.947 Y6.497
X19.881 Y6.38
X19.819 Y6.152
G3 X19.897 Y6.005 I0.123 J-0.029
X20.376 Y6.238 I0.129 J0.342
G1 X20.438 Y6.469
X20.454 Y6.542
X20.426 Y6.689
X20.327 Y6.762
X20.208 Y6.788
X20.088 Y6.761
X19.991 Y6.686
X19.935 Y6.578
X19.881 Y6.38
G3 X19.961 Y6.232 I0.123 J-0.029
X20.438 Y6.469 I0.126 J0.346
G1 X20.495 Y6.676
X20.511 Y6.749
X20.479 Y6.896
X20.38 Y6.967
X20.261 Y6.991
X20.142 Y6.964
X20.046 Y6.889
X19.99 Y6.781
X19.935 Y6.578
G3 X20.019 Y6.428 I0.123 J-0.029
X20.495 Y6.676 I0.115 J0.359
G1 X20.554 Y6.895
X20.57 Y6.968
X20.529 Y7.112
X20.429 Y7.179
X20.311 Y7.199
X20.195 Y7.169
X20.101 Y7.095
X20.046 Y6.988
X19.99 Y6.781
G3 X20.082 Y6.629 I0.123 J-0.029
X20.554 Y6.895 I0.096 J0.382
G1 X20.604 Y7.079
X20.62 Y7.153
X20.608 Y7.227
X20.544 Y7.362
X20.421 Y7.417
X20.288 Y7.407
X20.174 Y7.335
X20.109 Y7.218
X20.046 Y6.988
G3 X20.127 Y6.84 I0.123 J-0.029
X20.604 Y7.079 I0.123 J0.35
G1 X20.667 Y7.311
X20.683 Y7.384
X20.652 Y7.531
X20.554 Y7.603
X20.434 Y7.627
X20.316 Y7.6
X20.219 Y7.525
X20.163 Y7.417
X20.109 Y7.218
G3 X20.191 Y7.069 I0.123 J-0.029
X20.667 Y7.311 I0.121 J0.352
G1 X20.72 Y7.505
X20.736 Y7.579
X20.724 Y7.653
X20.661 Y7.789
X20.538 Y7.844
X20.404 Y7.834
X20.291 Y7.763
X20.225 Y7.645
X20.163 Y7.417
G3 X20.243 Y7.269 I0.123 J-0.029
X20.72 Y7.505 I0.126 J0.345
G1 X20.783 Y7.736
X20.799 Y7.809
X20.769 Y7.956
X20.671 Y8.029
X20.551 Y8.054
X20.432 Y8.027
X20.335 Y7.952
X20.279 Y7.844
X20.225 Y7.645
G3 X20.306 Y7.497 I0.123 J-0.029
X20.783 Y7.736 I0.124 J0.348
G1 X20.839 Y7.943
X20.855 Y8.016
X20.822 Y8.162
X20.724 Y8.234
X20.605 Y8.258
X20.486 Y8.23
X20.39 Y8.155
X20.334 Y8.047
X20.279 Y7.844
G3 X20.364 Y7.694 I0.123 J-0.029
X20.839 Y7.943 I0.114 J0.361
G1 X20.899 Y8.164
X20.915 Y8.237
X20.872 Y8.381
X20.773 Y8.447
X20.655 Y8.467
X20.539 Y8.436
X20.445 Y8.361
X20.391 Y8.255
X20.334 Y8.047
G3 X20.428 Y7.895 I0.123 J-0.029
X20.899 Y8.164 I0.092 J0.386
G1 X20.949 Y8.347
X20.965 Y8.42
X20.953 Y8.494
X20.889 Y8.629
X20.766 Y8.684
X20.632 Y8.674
X20.519 Y8.602
X20.453 Y8.485
X20.391 Y8.255
G3 X20.472 Y8.107 I0.123 J-0.029
X20.949 Y8.347 I0.123 J0.35
G1 X21.013 Y8.581
X21.029 Y8.654
X20.996 Y8.801
X20.897 Y8.872
X20.778 Y8.896
X20.66 Y8.868
X20.564 Y8.793
X20.508 Y8.685
X20.453 Y8.485
G3 X20.537 Y8.335 I0.123 J-0.029
X21.013 Y8.581 I0.117 J0.357
G1 X21.065 Y8.773
X21.081 Y8.846
X21.069 Y8.92
X21.007 Y9.056
X20.884 Y9.112
X20.75 Y9.102
X20.636 Y9.031
X20.57 Y8.913
X20.508 Y8.685
G3 X20.587 Y8.537 I0.123 J-0.029
X21.065 Y8.773 I0.128 J0.344
G1 X21.127 Y9.003
X21.143 Y9.076
X21.114 Y9.223
X21.016 Y9.296
X20.896 Y9.322
X20.777 Y9.294
X20.68 Y9.22
X20.624 Y9.111
X20.57 Y8.913
G3 X20.65 Y8.765 I0.123 J-0.029
X21.127 Y9.003 I0.125 J0.347
G1 X21.184 Y9.21
X21.2 Y9.283
X21.167 Y9.43
X21.069 Y9.501
X20.95 Y9.525
X20.831 Y9.497
X20.735 Y9.423
X20.679 Y9.315
X20.624 Y9.111
G3 X20.709 Y8.962 I0.123 J-0.029
X21.184 Y9.21 I0.114 J0.36
G1 X21.244 Y9.433
X21.26 Y9.506
X21.217 Y9.65
X21.117 Y9.715
X20.999 Y9.735
X20.883 Y9.704
X20.79 Y9.629
X20.736 Y9.523
X20.679 Y9.315
G3 X20.773 Y9.163 I0.123 J-0.029
X21.244 Y9.433 I0.09 J0.388
G1 X21.294 Y9.614
X21.31 Y9.687
X21.298 Y9.761
X21.234 Y9.897
X21.111 Y9.952
X20.977 Y9.942
X20.864 Y9.87
X20.798 Y9.752
X20.736 Y9.523
G3 X20.816 Y9.375 I0.123 J-0.029
X21.294 Y9.614 I0.124 J0.348
G1 X21.358 Y9.851
X21.374 Y9.924
X21.34 Y10.07
X21.241 Y10.141
X21.122 Y10.164
X21.004 Y10.136
X20.909 Y10.061
X20.853 Y9.954
X20.798 Y9.752
G3 X20.883 Y9.603 I0.123 J-0.029
X21.358 Y9.851 I0.114 J0.36
G1 X21.409 Y10.04
X21.425 Y10.113
X21.415 Y10.187
X21.353 Y10.324
X21.23 Y10.38
X21.095 Y10.371
X20.981 Y10.299
X20.914 Y10.181
X20.853 Y9.954
G3 X20.931 Y9.806 I0.123 J-0.029
X21.409 Y10.04 I0.129 J0.342
G1 X21.472 Y10.27
X21.488 Y10.343
X21.459 Y10.491
X21.361 Y10.564
X21.242 Y10.589
X21.122 Y10.562
X21.025 Y10.488
X20.968 Y10.379
X20.914 Y10.181
G3 X20.994 Y10.033 I0.123 J-0.029
X21.472 Y10.27 I0.126 J0.346
G1 X21.528 Y10.477
X21.544 Y10.55
X21.512 Y10.697
X21.414 Y10.769
X21.295 Y10.793
X21.176 Y10.765
X21.08 Y10.691
X21.024 Y10.583
X20.968 Y10.379
G3 X21.053 Y10.23 I0.123 J-0.029
X21.528 Y10.477 I0.115 J0.359
G1 X21.58 Y10.667
X21.596 Y10.74
X21.586 Y10.815
X21.524 Y10.952
X21.401 Y11.008
X21.266 Y10.999
X21.152 Y10.927
X21.085 Y10.809
X21.024 Y10.583
G3 X21.101 Y10.435 I0.123 J-0.029
X21.58 Y10.667 I0.131 J0.34
G1 X21.65 Y10.925
X21.666 Y10.998
X21.622 Y11.142
X21.523 Y11.208
X21.405 Y11.227
X21.289 Y11.197
X21.196 Y11.123
X21.142 Y11.017
X21.085 Y10.809
G3 X21.179 Y10.658 I0.123 J-0.029
X21.65 Y10.925 I0.094 J0.384
G1 X21.704 Y11.121
X21.72 Y11.195
X21.685 Y11.341
X21.586 Y11.411
X21.467 Y11.434
X21.349 Y11.406
X21.254 Y11.331
X21.198 Y11.224
X21.142 Y11.017
G3 X21.23 Y10.866 I0.123 J-0.029
X21.704 Y11.121 I0.107 J0.369
G1 X21.754 Y11.307
X21.77 Y11.38
X21.76 Y11.454
X21.699 Y11.592
X21.576 Y11.649
X21.441 Y11.64
X21.326 Y11.568
X21.259 Y11.45
X21.198 Y11.224
G3 X21.275 Y11.077 I0.123 J-0.029
X21.754 Y11.307 I0.133 J0.338
G1 X21.817 Y11.537
X21.833 Y11.61
X21.805 Y11.758
X21.707 Y11.832
X21.587 Y11.858
X21.468 Y11.831
X21.37 Y11.756
X21.313 Y11.647
X21.259 Y11.45
G3 X21.339 Y11.302 I0.123 J-0.029
X21.817 Y11.537 I0.128 J0.344
G1 X21.873 Y11.744
X21.889 Y11.818
X21.858 Y11.964
X21.759 Y12.036
X21.64 Y12.061
X21.521 Y12.033
X21.425 Y11.959
X21.368 Y11.851
X21.313 Y11.647
G3 X21.397 Y11.498 I0.123 J-0.029
X21.873 Y11.744 I0.117 J0.357
G1 X21.926 Y11.939
X21.942 Y12.012
X21.93 Y12.086
X21.867 Y12.222
X21.744 Y12.278
X21.61 Y12.268
X21.497 Y12.196
X21.431 Y12.079
X21.368 Y11.851
G3 X21.448 Y11.703 I0.123 J-0.029
X21.926 Y11.939 I0.127 J0.345
G1 X21.995 Y12.192
X22.011 Y12.265
X21.968 Y12.409
X21.868 Y12.476
X21.751 Y12.496
X21.635 Y12.466
X21.541 Y12.391
X21.487 Y12.285
X21.431 Y12.079
G3 X21.523 Y11.928 I0.123 J-0.029
X21.995 Y12.192 I0.097 J0.381
G1 X22.049 Y12.392
X22.065 Y12.465
X22.029 Y12.61
X21.93 Y12.68
X21.811 Y12.703
X21.694 Y12.674
X21.599 Y12.599
X21.543 Y12.492
X21.487 Y12.285
G3 X21.576 Y12.134 I0.123 J-0.029
X22.049 Y12.392 I0.105 J0.372
G1 X22.108 Y12.609
X22.124 Y12.682
X22.081 Y12.826
X21.981 Y12.892
X21.863 Y12.911
X21.748 Y12.881
X21.654 Y12.807
X21.599 Y12.7
X21.543 Y12.492
G3 X21.637 Y12.34 I0.123 J-0.029
X22.108 Y12.609 I0.092 J0.386
G1 X22.156 Y12.786
X22.172 Y12.86
X22.162 Y12.934
X22.1 Y13.071
X21.977 Y13.127
X21.842 Y13.118
X21.728 Y13.045
X21.661 Y12.928
X21.599 Y12.7
G3 X21.678 Y12.553 I0.123 J-0.029
X22.156 Y12.786 I0.129 J0.342
G1 X22.217 Y13.011
X22.234 Y13.085
X22.221 Y13.159
X22.137 Y13.259
X22.015 Y13.309
X21.885 Y13.297
X21.775 Y13.225
X21.711 Y13.11
X21.661 Y12.928
G3 X21.739 Y12.78 I0.123 J-0.029
X22.217 Y13.011 I0.132 J0.338
G1 X22.264 Y13.183
X22.28 Y13.256
X22.27 Y13.331
X22.209 Y13.468
X22.088 Y13.527
X21.953 Y13.52
X21.838 Y13.449
X21.771 Y13.331
X21.711 Y13.11
G3 X21.783 Y12.965 I0.124 J-0.029
X22.264 Y13.183 I0.144 J0.322
G1 X22.327 Y13.415
X22.343 Y13.488
X22.316 Y13.636
X22.218 Y13.71
X22.098 Y13.737
X21.979 Y13.71
X21.881 Y13.635
X21.824 Y13.527
X21.771 Y13.331
G3 X21.849 Y13.184 I0.123 J-0.029
X22.327 Y13.415 I0.131 J0.339
G1 X22.38 Y13.611
X22.397 Y13.684
X22.386 Y13.758
X22.324 Y13.895
X22.202 Y13.952
X22.067 Y13.943
X21.952 Y13.871
X21.886 Y13.753
X21.824 Y13.527
G3 X21.902 Y13.379 I0.123 J-0.029
X22.38 Y13.611 I0.131 J0.339
G1 X22.443 Y13.841
X22.459 Y13.914
X22.431 Y14.062
X22.333 Y14.135
X22.213 Y14.161
X22.094 Y14.134
X21.996 Y14.059
X21.94 Y13.951
X21.886 Y13.753
G3 X21.965 Y13.606 I0.123 J-0.029
X22.443 Y13.841 I0.127 J0.344
G1 X22.502 Y14.058
X22.518 Y14.131
X22.48 Y14.277
X22.381 Y14.345
X22.263 Y14.367
X22.146 Y14.338
X22.051 Y14.263
X21.995 Y14.156
X21.94 Y13.951
G3 X22.029 Y13.8 I0.123 J-0.029
X22.502 Y14.058 I0.104 J0.373
G1 X22.554 Y14.25
X22.57 Y14.323
X22.557 Y14.397
X22.491 Y14.532
X22.369 Y14.586
X22.236 Y14.575
X22.123 Y14.503
X22.058 Y14.387
X21.995 Y14.156
G3 X22.078 Y14.007 I0.123 J-0.029
X22.554 Y14.25 I0.12 J0.353
G1 X22.617 Y14.482
X22.633 Y14.555
X22.601 Y14.702
X22.502 Y14.773
X22.383 Y14.797
X22.265 Y14.769
X22.169 Y14.694
X22.112 Y14.586
X22.058 Y14.387
G3 X22.141 Y14.238 I0.123 J-0.029
X22.617 Y14.482 I0.118 J0.355
G1 X22.672 Y14.682
X22.688 Y14.756
X22.658 Y14.903
X22.56 Y14.975
X22.44 Y15.
X22.321 Y14.973
X22.224 Y14.898
X22.168 Y14.79
X22.112 Y14.586
G3 X22.196 Y14.437 I0.123 J-0.029
X22.672 Y14.682 I0.118 J0.356
G1 X22.725 Y14.878
X22.741 Y14.951
X22.729 Y15.025
X22.666 Y15.161
X22.544 Y15.217
X22.41 Y15.208
X22.296 Y15.136
X22.23 Y15.018
X22.168 Y14.79
G3 X22.247 Y14.642 I0.123 J-0.029
X22.725 Y14.878 I0.127 J0.344
G1 X22.788 Y15.108
X22.804 Y15.181
X22.774 Y15.329
X22.676 Y15.402
X22.556 Y15.427
X22.437 Y15.399
X22.34 Y15.325
X22.284 Y15.216
X22.23 Y15.018
G3 X22.31 Y14.87 I0.123 J-0.029
X22.788 Y15.108 I0.125 J0.347
G1 X22.848 Y15.33
X22.864 Y15.403
X22.823 Y15.547
X22.723 Y15.614
X22.605 Y15.634
X22.489 Y15.605
X22.395 Y15.53
X22.34 Y15.423
X22.284 Y15.216
G3 X22.376 Y15.065 I0.123 J-0.029
X22.848 Y15.33 I0.096 J0.381
G1 X22.899 Y15.517
X22.915 Y15.59
X22.902 Y15.664
X22.836 Y15.799
X22.714 Y15.853
X22.581 Y15.842
X22.468 Y15.77
X22.403 Y15.654
X22.34 Y15.423
G3 X22.423 Y15.274 I0.123 J-0.029
X22.899 Y15.517 I0.12 J0.353
G1 X22.963 Y15.754
X22.979 Y15.827
X22.944 Y15.973
X22.845 Y16.043
X22.726 Y16.066
X22.609 Y16.037
X22.513 Y15.963
X22.457 Y15.855
X22.403 Y15.654
G3 X22.488 Y15.504 I0.123 J-0.029
X22.963 Y15.754 I0.113 J0.362
G1 X23.016 Y15.949
X23.032 Y16.023
X23.004 Y16.17
X22.906 Y16.244
X22.786 Y16.269
X22.667 Y16.242
X22.57 Y16.168
X22.513 Y16.059
X22.457 Y15.855
G3 X22.54 Y15.706 I0.123 J-0.029
X23.016 Y15.949 I0.119 J0.354
G1 X23.07 Y16.145
X23.086 Y16.218
X23.074 Y16.292
X23.012 Y16.429
X22.89 Y16.485
X22.755 Y16.476
X22.641 Y16.404
X22.575 Y16.287
X22.513 Y16.059
G3 X22.591 Y15.912 I0.123 J-0.029
X23.07 Y16.145 I0.129 J0.341
G1 X23.132 Y16.375
X23.148 Y16.449
X23.12 Y16.596
X23.022 Y16.669
X22.902 Y16.695
X22.782 Y16.668
X22.685 Y16.593
X22.629 Y16.484
X22.575 Y16.287
G3 X22.655 Y16.139 I0.123 J-0.029
X23.132 Y16.375 I0.126 J0.345
G1 X23.188 Y16.579
X23.204 Y16.652
X23.174 Y16.799
X23.076 Y16.872
X22.957 Y16.898
X22.837 Y16.87
X22.74 Y16.796
X22.684 Y16.687
X22.629 Y16.484
G3 X22.711 Y16.335 I0.123 J-0.029
X23.188 Y16.579 I0.119 J0.354
G1 X23.243 Y16.784
X23.26 Y16.858
X23.228 Y17.004
X23.13 Y17.076
X23.011 Y17.101
X22.892 Y17.073
X22.795 Y16.999
X22.739 Y16.891
X22.684 Y16.687
G3 X22.768 Y16.538 I0.123 J-0.029
X23.243 Y16.784 I0.116 J0.358
G1 X23.3 Y16.992
X23.316 Y17.065
X23.282 Y17.211
X23.183 Y17.282
X23.064 Y17.305
X22.946 Y17.277
X22.851 Y17.203
X22.795 Y17.095
X22.739 Y16.891
G3 X22.825 Y16.741 I0.123 J-0.029
X23.3 Y16.992 I0.111 J0.364
G1 X23.352 Y17.182
X23.368 Y17.255
X23.356 Y17.329
X23.294 Y17.466
X23.171 Y17.521
X23.037 Y17.512
X22.923 Y17.44
X22.857 Y17.323
X22.795 Y17.095
G3 X22.874 Y16.947 I0.123 J-0.029
X23.352 Y17.182 I0.128 J0.343
G1 X23.414 Y17.412
X23.43 Y17.485
X23.401 Y17.633
X23.303 Y17.706
X23.183 Y17.731
X23.064 Y17.704
X22.967 Y17.629
X22.91 Y17.521
X22.857 Y17.323
G3 X22.937 Y17.175 I0.123 J-0.029
X23.414 Y17.412 I0.125 J0.347
G1 X23.471 Y17.619
X23.487 Y17.692
X23.454 Y17.839
X23.356 Y17.911
X23.237 Y17.935
X23.118 Y17.907
X23.022 Y17.832
X22.966 Y17.724
X22.91 Y17.521
G3 X22.995 Y17.371 I0.123 J-0.029
X23.471 Y17.619 I0.115 J0.36
G1 X23.525 Y17.821
X23.541 Y17.894
X23.511 Y18.041
X23.413 Y18.114
X23.293 Y18.138
X23.174 Y18.111
X23.078 Y18.036
X23.021 Y17.928
X22.966 Y17.724
G3 X23.05 Y17.575 I0.123 J-0.029
X23.525 Y17.821 I0.117 J0.357
G1 X23.58 Y18.023
X23.596 Y18.096
X23.567 Y18.243
X23.469 Y18.316
X23.349 Y18.342
X23.23 Y18.314
X23.133 Y18.24
X23.076 Y18.131
X23.021 Y17.928
G3 X23.104 Y17.779 I0.123 J-0.029
X23.58 Y18.023 I0.119 J0.355
G1 X23.633 Y18.218
X23.65 Y18.292
X23.638 Y18.366
X23.575 Y18.502
X23.453 Y18.558
X23.318 Y18.549
X23.204 Y18.477
X23.138 Y18.359
X23.076 Y18.131
G3 X23.156 Y17.984 I0.123 J-0.029
X23.633 Y18.218 I0.128 J0.343
G1 X23.696 Y18.449
X23.712 Y18.522
X23.683 Y18.669
X23.585 Y18.742
X23.465 Y18.768
X23.346 Y18.74
X23.249 Y18.666
X23.192 Y18.557
X23.138 Y18.359
G3 X23.219 Y18.211 I0.123 J-0.029
X23.696 Y18.449 I0.125 J0.347
G1 X23.752 Y18.656
X23.768 Y18.729
X23.736 Y18.876
X23.638 Y18.947
X23.518 Y18.971
X23.4 Y18.943
X23.304 Y18.869
X23.248 Y18.761
X23.192 Y18.557
G3 X23.277 Y18.408 I0.123 J-0.029
X23.752 Y18.656 I0.114 J0.36
G1 X23.807 Y18.858
X23.823 Y18.931
X23.793 Y19.078
X23.694 Y19.15
X23.575 Y19.175
X23.456 Y19.148
X23.36 Y19.073
X23.303 Y18.965
X23.248 Y18.761
G3 X23.332 Y18.612 I0.123 J-0.029
X23.807 Y18.858 I0.116 J0.358
G1 X23.862 Y19.06
X23.878 Y19.133
X23.849 Y19.28
X23.751 Y19.353
X23.631 Y19.378
X23.512 Y19.351
X23.415 Y19.276
X23.358 Y19.168
X23.303 Y18.965
G3 X23.386 Y18.816 I0.123 J-0.029
X23.862 Y19.06 I0.119 J0.355
G1 X23.915 Y19.255
X23.931 Y19.328
X23.92 Y19.403
X23.857 Y19.539
X23.734 Y19.594
X23.6 Y19.585
X23.486 Y19.513
X23.42 Y19.396
X23.358 Y19.168
G3 X23.437 Y19.02 I0.123 J-0.029
X23.915 Y19.255 I0.128 J0.343
G1 X23.978 Y19.486
X23.994 Y19.559
X23.965 Y19.706
X23.867 Y19.779
X23.747 Y19.804
X23.628 Y19.777
X23.531 Y19.702
X23.474 Y19.594
X23.42 Y19.396
G3 X23.501 Y19.248 I0.123 J-0.029
X23.978 Y19.486 I0.125 J0.347
G1 X24.034 Y19.693
X24.05 Y19.766
X24.018 Y19.912
X23.92 Y19.984
X23.8 Y20.008
X23.682 Y19.98
X23.586 Y19.906
X23.53 Y19.798
X23.474 Y19.594
G3 X23.559 Y19.444 I0.123 J-0.029
X24.034 Y19.693 I0.114 J0.36
G1 X24.089 Y19.895
X24.105 Y19.968
X24.074 Y20.115
X23.976 Y20.187
X23.857 Y20.212
X23.738 Y20.184
X23.641 Y20.11
X23.585 Y20.001
X23.53 Y19.798
G3 X23.614 Y19.648 I0.123 J-0.029
X24.089 Y19.895 I0.116 J0.358
G1 X24.144 Y20.096
X24.16 Y20.17
X24.131 Y20.317
X24.032 Y20.39
X23.913 Y20.415
X23.794 Y20.388
X23.697 Y20.313
X23.64 Y20.205
X23.585 Y20.001
G3 X23.668 Y19.852 I0.123 J-0.029
X24.144 Y20.096 I0.119 J0.355
G1 X24.197 Y20.292
X24.213 Y20.365
X24.202 Y20.439
X24.139 Y20.576
X24.016 Y20.631
X23.882 Y20.622
X23.768 Y20.55
X23.702 Y20.433
X23.64 Y20.205
G3 X23.719 Y20.057 I0.123 J-0.029
X24.197 Y20.292 I0.128 J0.343
G1 X24.26 Y20.522
X24.276 Y20.596
X24.247 Y20.743
X24.149 Y20.816
X24.029 Y20.841
X23.91 Y20.814
X23.813 Y20.739
X23.756 Y20.631
X23.702 Y20.433
G3 X23.783 Y20.285 I0.123 J-0.029
X24.26 Y20.522 I0.125 J0.347
G1 X24.316 Y20.729
X24.332 Y20.803
X24.3 Y20.949
X24.202 Y21.021
X24.082 Y21.045
X23.964 Y21.017
X23.868 Y20.942
X23.811 Y20.834
X23.756 Y20.631
G3 X23.841 Y20.481 I0.123 J-0.029
X24.316 Y20.729 I0.114 J0.36
G1 X24.371 Y20.931
X24.387 Y21.005
X24.356 Y21.151
X24.258 Y21.224
X24.139 Y21.248
X24.02 Y21.221
X23.923 Y21.146
X23.867 Y21.038
X23.811 Y20.834
G3 X23.896 Y20.685 I0.123 J-0.029
X24.371 Y20.931 I0.116 J0.358
G1 X24.426 Y21.133
X24.442 Y21.206
X24.412 Y21.353
X24.314 Y21.426
X24.195 Y21.452
X24.076 Y21.424
X23.979 Y21.35
X23.922 Y21.241
X23.867 Y21.038
G3 X23.95 Y20.889 I0.123 J-0.029
X24.426 Y21.133 I0.119 J0.355
G1 X24.479 Y21.329
X24.495 Y21.402
X24.484 Y21.476
X24.421 Y21.612
X24.298 Y21.668
X24.164 Y21.659
X24.05 Y21.587
X23.984 Y21.47
X23.922 Y21.241
G3 X24.001 Y21.094 I0.123 J-0.029
X24.479 Y21.329 I0.128 J0.343
G1 X24.542 Y21.559
X24.558 Y21.632
X24.529 Y21.779
X24.431 Y21.853
X24.311 Y21.878
X24.192 Y21.851
X24.095 Y21.776
X24.038 Y21.667
X23.984 Y21.47
G3 X24.065 Y21.321 I0.123 J-0.029
X24.542 Y21.559 I0.125 J0.347
G1 X24.605 Y21.789
X24.613 Y21.826
X24.601 Y21.9
X24.54 Y22.037
X24.416 Y22.094
X24.281 Y22.085
X24.166 Y22.013
X24.1 Y21.895
X24.038 Y21.667
G3 X24.134 Y21.515 I0.123 J-0.029
X24.605 Y21.789 I0.085 J0.394
G1 X24.661 Y21.997
X24.677 Y22.07
X24.641 Y22.215
X24.542 Y22.285
X24.423 Y22.308
X24.306 Y22.279
X24.211 Y22.205
X24.155 Y22.097
X24.1 Y21.895
G3 X24.186 Y21.744 I0.123 J-0.029
X24.661 Y21.997 I0.11 J0.365
G1 X24.72 Y22.214
X24.736 Y22.287
X24.693 Y22.431
X24.593 Y22.497
X24.475 Y22.517
X24.36 Y22.487
X24.266 Y22.412
X24.212 Y22.305
X24.155 Y22.097
G3 X24.249 Y21.945 I0.123 J-0.029
X24.72 Y22.214 I0.092 J0.386
G1 X24.771 Y22.4
X24.787 Y22.474
X24.773 Y22.547
X24.708 Y22.682
X24.585 Y22.736
X24.452 Y22.725
X24.34 Y22.653
X24.274 Y22.536
X24.212 Y22.305
G3 X24.295 Y22.156 I0.123 J-0.029
X24.771 Y22.4 I0.119 J0.355
G1 X24.833 Y22.631
X24.849 Y22.704
X24.817 Y22.85
X24.719 Y22.922
X24.599 Y22.946
X24.481 Y22.918
X24.385 Y22.844
X24.329 Y22.736
X24.274 Y22.536
G3 X24.357 Y22.387 I0.123 J-0.029
X24.833 Y22.631 I0.12 J0.354
G1 X24.887 Y22.826
X24.903 Y22.9
X24.89 Y22.973
X24.826 Y23.109
X24.703 Y23.164
X24.57 Y23.154
X24.457 Y23.082
X24.391 Y22.965
X24.329 Y22.736
G3 X24.409 Y22.587 I0.123 J-0.029
X24.887 Y22.826 I0.124 J0.348
G1 X24.949 Y23.057
X24.965 Y23.13
X24.935 Y23.277
X24.836 Y23.349
X24.717 Y23.374
X24.598 Y23.346
X24.501 Y23.272
X24.445 Y23.164
X24.391 Y22.965
G3 X24.472 Y22.817 I0.123 J-0.029
X24.949 Y23.057 I0.123 J0.35
G1 X25.005 Y23.264
X25.022 Y23.337
X24.988 Y23.483
X24.89 Y23.554
X24.771 Y23.578
X24.652 Y23.55
X24.556 Y23.475
X24.5 Y23.368
X24.445 Y23.164
G3 X24.531 Y23.014 I0.123 J-0.029
X25.005 Y23.264 I0.113 J0.362
G1 X25.065 Y23.481
X25.081 Y23.555
X25.039 Y23.699
X24.94 Y23.766
X24.822 Y23.786
X24.705 Y23.756
X24.612 Y23.681
X24.557 Y23.575
X24.5 Y23.368
G3 X24.593 Y23.216 I0.123 J-0.029
X25.065 Y23.481 I0.096 J0.382
G1 X25.115 Y23.667
X25.131 Y23.741
X25.119 Y23.815
X25.054 Y23.95
X24.931 Y24.004
X24.798 Y23.994
X24.685 Y23.922
X24.619 Y23.805
X24.557 Y23.575
G3 X24.639 Y23.426 I0.123 J-0.029
X25.115 Y23.667 I0.121 J0.352
G1 X25.178 Y23.898
X25.194 Y23.971
X25.163 Y24.118
X25.064 Y24.19
X24.945 Y24.214
X24.826 Y24.187
X24.73 Y24.112
X24.673 Y24.004
X24.619 Y23.805
G3 X24.701 Y23.656 I0.123 J-0.029
X25.178 Y23.898 I0.121 J0.352
G1 X25.231 Y24.093
X25.247 Y24.167
X25.235 Y24.241
X25.171 Y24.376
X25.049 Y24.431
X24.915 Y24.422
X24.801 Y24.35
X24.736 Y24.233
X24.673 Y24.004
G3 X24.754 Y23.856 I0.123 J-0.029
X25.231 Y24.093 I0.125 J0.347
G1 X25.294 Y24.324
X25.31 Y24.397
X25.28 Y24.544
X25.181 Y24.617
X25.062 Y24.641
X24.943 Y24.614
X24.846 Y24.539
X24.79 Y24.431
X24.736 Y24.233
G3 X24.817 Y24.084 I0.123 J-0.029
X25.294 Y24.324 I0.124 J0.349
G1 X25.35 Y24.531
X25.366 Y24.604
X25.333 Y24.75
X25.235 Y24.822
X25.115 Y24.845
X24.997 Y24.818
X24.901 Y24.743
X24.845 Y24.635
X24.79 Y24.431
G3 X24.875 Y24.281 I0.123 J-0.029
X25.35 Y24.531 I0.113 J0.362
G1 X25.409 Y24.748
X25.425 Y24.822
X25.384 Y24.966
X25.285 Y25.033
X25.166 Y25.053
X25.05 Y25.023
X24.956 Y24.949
X24.901 Y24.842
X24.845 Y24.635
G3 X24.937 Y24.483 I0.123 J-0.029
X25.409 Y24.748 I0.096 J0.381
G1 X25.46 Y24.935
X25.476 Y25.008
X25.463 Y25.082
X25.398 Y25.217
X25.276 Y25.271
X25.142 Y25.261
X25.029 Y25.189
X24.964 Y25.072
X24.901 Y24.842
G3 X24.983 Y24.693 I0.123 J-0.029
X25.46 Y24.935 I0.122 J0.351
G1 X25.523 Y25.165
X25.539 Y25.238
X25.507 Y25.385
X25.409 Y25.457
X25.29 Y25.482
X25.171 Y25.454
X25.074 Y25.379
X25.018 Y25.271
X24.964 Y25.072
G3 X25.046 Y24.923 I0.123 J-0.029
X25.523 Y25.165 I0.121 J0.352
G1 X25.576 Y25.361
X25.592 Y25.434
X25.579 Y25.508
X25.516 Y25.644
X25.393 Y25.699
X25.259 Y25.689
X25.146 Y25.617
X25.08 Y25.5
X25.018 Y25.271
G3 X25.098 Y25.123 I0.123 J-0.029
X25.545 Y25.289 I0.125 J0.347
X25.576 Y25.361 I-0.321 J0.181
G1 X25.638 Y25.591
X25.654 Y25.664
X25.624 Y25.811
X25.526 Y25.884
X25.406 Y25.909
X25.287 Y25.881
X25.191 Y25.807
X25.134 Y25.698
X25.08 Y25.5
G3 X25.161 Y25.352 I0.123 J-0.029
X25.638 Y25.591 I0.124 J0.349
G1 X25.695 Y25.798
X25.711 Y25.871
X25.678 Y26.018
X25.579 Y26.089
X25.46 Y26.113
X25.342 Y26.085
X25.246 Y26.01
X25.19 Y25.902
X25.134 Y25.698
G3 X25.22 Y25.548 I0.123 J-0.029
X25.695 Y25.798 I0.113 J0.362
G1 X25.754 Y26.016
X25.77 Y26.089
X25.729 Y26.233
X25.629 Y26.3
X25.511 Y26.32
X25.395 Y26.291
X25.301 Y26.216
X25.246 Y26.109
X25.19 Y25.902
G3 X25.282 Y25.751 I0.123 J-0.029
X25.754 Y26.016 I0.096 J0.381
G1 X25.804 Y26.202
X25.82 Y26.275
X25.808 Y26.349
X25.743 Y26.484
X25.621 Y26.538
X25.487 Y26.528
X25.374 Y26.456
X25.308 Y26.339
X25.246 Y26.109
G3 X25.328 Y25.961 I0.123 J-0.029
X25.804 Y26.202 I0.122 J0.351
G1 X25.867 Y26.432
X25.883 Y26.505
X25.852 Y26.652
X25.754 Y26.724
X25.634 Y26.749
X25.515 Y26.721
X25.419 Y26.646
X25.363 Y26.538
X25.308 Y26.339
G3 X25.391 Y26.191 I0.123 J-0.029
X25.867 Y26.432 I0.121 J0.352
G1 X25.92 Y26.628
X25.936 Y26.701
X25.924 Y26.775
X25.86 Y26.911
X25.738 Y26.966
X25.604 Y26.956
X25.491 Y26.884
X25.425 Y26.767
X25.363 Y26.538
G3 X25.443 Y26.39 I0.123 J-0.029
X25.92 Y26.628 I0.125 J0.347
G1 X25.983 Y26.858
X25.999 Y26.931
X25.969 Y27.078
X25.871 Y27.151
X25.751 Y27.176
X25.632 Y27.148
X25.535 Y27.074
X25.479 Y26.965
X25.425 Y26.767
G3 X25.506 Y26.619 I0.123 J-0.029
X25.983 Y26.858 I0.124 J0.349
G1 X26.039 Y27.065
X26.055 Y27.138
X26.022 Y27.285
X25.924 Y27.356
X25.805 Y27.38
X25.686 Y27.352
X25.59 Y27.277
X25.534 Y27.169
X25.479 Y26.965
G3 X25.564 Y26.816 I0.123 J-0.029
X26.039 Y27.065 I0.113 J0.362
G1 X26.098 Y27.283
X26.114 Y27.356
X26.073 Y27.5
X25.974 Y27.567
X25.856 Y27.587
X25.739 Y27.558
X25.646 Y27.483
X25.59 Y27.376
X25.534 Y27.169
G3 X25.626 Y27.018 I0.123 J-0.029
X26.098 Y27.283 I0.096 J0.381
G1 X26.149 Y27.469
X26.165 Y27.542
X26.153 Y27.616
X26.088 Y27.751
X25.965 Y27.805
X25.832 Y27.795
X25.719 Y27.723
X25.653 Y27.606
X25.59 Y27.376
G3 X25.672 Y27.228 I0.123 J-0.029
X26.149 Y27.469 I0.122 J0.351
G1 X26.212 Y27.699
X26.228 Y27.773
X26.197 Y27.919
X26.098 Y27.991
X25.979 Y28.016
X25.86 Y27.988
X25.764 Y27.913
X25.707 Y27.805
X25.653 Y27.606
G3 X25.735 Y27.458 I0.123 J-0.029
X26.212 Y27.699 I0.121 J0.352
G1 X26.265 Y27.895
X26.281 Y27.968
X26.268 Y28.042
X26.205 Y28.178
X26.082 Y28.233
X25.949 Y28.223
X25.835 Y28.151
X25.769 Y28.034
X25.707 Y27.805
G3 X25.787 Y27.657 I0.123 J-0.029
X26.265 Y27.895 I0.125 J0.347
G1 X26.328 Y28.125
X26.344 Y28.198
X26.313 Y28.345
X26.215 Y28.418
X26.096 Y28.443
X25.977 Y28.416
X25.88 Y28.341
X25.823 Y28.233
X25.769 Y28.034
G3 X25.85 Y27.886 I0.123 J-0.029
X26.328 Y28.125 I0.124 J0.349
G1 X26.384 Y28.332
X26.4 Y28.406
X26.367 Y28.552
X26.268 Y28.623
X26.149 Y28.647
X26.031 Y28.619
X25.935 Y28.544
X25.879 Y28.436
X25.823 Y28.233
G3 X25.909 Y28.083 I0.123 J-0.029
X26.384 Y28.332 I0.113 J0.362
G1 X26.443 Y28.55
X26.459 Y28.623
X26.418 Y28.767
X26.318 Y28.834
X26.2 Y28.855
X26.084 Y28.825
X25.99 Y28.75
X25.935 Y28.643
X25.879 Y28.436
G3 X25.971 Y28.285 I0.123 J-0.029
X26.443 Y28.55 I0.096 J0.381
G1 X26.494 Y28.736
X26.51 Y28.809
X26.497 Y28.883
X26.432 Y29.018
X26.31 Y29.073
X26.176 Y29.062
X26.063 Y28.99
X25.998 Y28.874
X25.935 Y28.643
G3 X26.017 Y28.495 I0.123 J-0.029
X26.494 Y28.736 I0.122 J0.351
G1 X26.556 Y28.966
X26.572 Y29.04
X26.541 Y29.186
X26.443 Y29.258
X26.323 Y29.283
X26.205 Y29.255
X26.108 Y29.181
X26.052 Y29.072
X25.998 Y28.874
G3 X26.08 Y28.725 I0.123 J-0.029
X26.556 Y28.966 I0.121 J0.352
G1 X26.609 Y29.162
X26.625 Y29.235
X26.613 Y29.309
X26.549 Y29.445
X26.427 Y29.5
X26.293 Y29.49
X26.18 Y29.418
X26.114 Y29.301
X26.052 Y29.072
G3 X26.132 Y28.924 I0.123 J-0.029
X26.609 Y29.162 I0.125 J0.347
G1 X26.672 Y29.392
X26.688 Y29.466
X26.658 Y29.613
X26.56 Y29.685
X26.44 Y29.71
X26.321 Y29.683
X26.224 Y29.608
X26.168 Y29.5
X26.114 Y29.301
G3 X26.195 Y29.153 I0.123 J-0.029
X26.672 Y29.392 I0.124 J0.349
G1 X26.728 Y29.599
X26.744 Y29.673
X26.711 Y29.819
X26.613 Y29.89
X26.494 Y29.914
X26.375 Y29.886
X26.28 Y29.811
X26.223 Y29.704
X26.168 Y29.5
G3 X26.253 Y29.35 I0.123 J-0.029
X26.728 Y29.599 I0.113 J0.362
G1 X26.788 Y29.818
X26.804 Y29.891
X26.762 Y30.035
X26.663 Y30.102
X26.544 Y30.122
X26.428 Y30.092
X26.335 Y30.017
X26.28 Y29.911
X26.223 Y29.704
G3 X26.316 Y29.552 I0.123 J-0.029
X26.788 Y29.818 I0.095 J0.383
G1 X26.838 Y30.003
X26.854 Y30.076
X26.842 Y30.15
X26.777 Y30.286
X26.655 Y30.34
X26.521 Y30.33
X26.408 Y30.258
X26.342 Y30.141
X26.28 Y29.911
G3 X26.361 Y29.762 I0.123 J-0.029
X26.838 Y30.003 I0.122 J0.351
G1 X26.901 Y30.234
X26.917 Y30.307
X26.886 Y30.454
X26.788 Y30.526
X26.668 Y30.55
X26.549 Y30.523
X26.453 Y30.448
X26.396 Y30.34
X26.342 Y30.141
G3 X26.424 Y29.992 I0.123 J-0.029
X26.901 Y30.234 I0.121 J0.351
G1 X26.954 Y30.429
X26.97 Y30.502
X26.958 Y30.576
X26.894 Y30.712
X26.772 Y30.767
X26.638 Y30.758
X26.524 Y30.686
X26.459 Y30.569
X26.396 Y30.34
G3 X26.477 Y30.192 I0.123 J-0.029
X26.954 Y30.429 I0.125 J0.346
G1 X27.017 Y30.659
X27.033 Y30.733
X27.003 Y30.88
X26.904 Y30.952
X26.785 Y30.977
X26.666 Y30.95
X26.569 Y30.875
X26.513 Y30.767
X26.459 Y30.569
G3 X26.54 Y30.42 I0.123 J-0.029
X27.017 Y30.659 I0.124 J0.349
G1 X27.073 Y30.867
X27.089 Y30.94
X27.056 Y31.086
X26.958 Y31.157
X26.838 Y31.181
X26.72 Y31.153
X26.624 Y31.079
X26.568 Y30.971
X26.513 Y30.767
G3 X26.598 Y30.617 I0.123 J-0.029
X27.073 Y30.867 I0.113 J0.361
G1 X27.133 Y31.086
X27.149 Y31.16
X27.106 Y31.304
X27.007 Y31.37
X26.889 Y31.39
X26.773 Y31.36
X26.679 Y31.285
X26.624 Y31.178
X26.568 Y30.971
G3 X26.661 Y30.819 I0.123 J-0.029
X27.133 Y31.086 I0.093 J0.385
G1 X27.183 Y31.27
X27.199 Y31.344
X27.187 Y31.418
X27.122 Y31.553
X26.999 Y31.607
X26.866 Y31.597
X26.753 Y31.525
X26.687 Y31.408
X26.624 Y31.178
G3 X26.706 Y31.03 I0.123 J-0.029
X27.183 Y31.27 I0.122 J0.35
G1 X27.245 Y31.501
X27.261 Y31.574
X27.231 Y31.721
X27.132 Y31.793
X27.013 Y31.818
X26.894 Y31.79
X26.797 Y31.715
X26.741 Y31.607
X26.687 Y31.408
G3 X26.769 Y31.259 I0.123 J-0.029
X27.245 Y31.501 I0.122 J0.351
G1 X27.299 Y31.696
X27.315 Y31.769
X27.302 Y31.843
X27.239 Y31.979
X27.116 Y32.034
X26.983 Y32.025
X26.869 Y31.953
X26.803 Y31.836
X26.741 Y31.607
G3 X26.821 Y31.459 I0.123 J-0.029
X27.299 Y31.696 I0.126 J0.346
G1 X27.361 Y31.927
X27.377 Y32.
X27.347 Y32.147
X27.249 Y32.22
X27.129 Y32.245
X27.01 Y32.217
X26.914 Y32.142
X26.857 Y32.034
X26.803 Y31.836
G3 X26.884 Y31.688 I0.123 J-0.029
X27.361 Y31.927 I0.124 J0.348
G1 X27.418 Y32.134
X27.434 Y32.207
X27.401 Y32.353
X27.302 Y32.425
X27.183 Y32.448
X27.065 Y32.421
X26.969 Y32.346
X26.913 Y32.238
X26.857 Y32.034
G3 X26.943 Y31.884 I0.123 J-0.029
X27.418 Y32.134 I0.113 J0.361
G1 X27.478 Y32.355
X27.494 Y32.428
X27.451 Y32.572
X27.351 Y32.638
X27.233 Y32.657
X27.117 Y32.627
X27.024 Y32.552
X26.969 Y32.446
X26.913 Y32.238
G3 X27.006 Y32.086 I0.123 J-0.029
X27.478 Y32.355 I0.092 J0.387
G1 X27.527 Y32.537
X27.543 Y32.611
X27.532 Y32.685
X27.467 Y32.82
X27.344 Y32.875
X27.211 Y32.865
X27.097 Y32.793
X27.032 Y32.676
X26.969 Y32.446
G3 X27.05 Y32.297 I0.123 J-0.029
X27.527 Y32.537 I0.123 J0.35
G1 X27.59 Y32.768
X27.606 Y32.841
X27.575 Y32.988
X27.477 Y33.06
X27.358 Y33.085
X27.239 Y33.057
X27.142 Y32.983
X27.086 Y32.874
X27.032 Y32.676
G3 X27.113 Y32.527 I0.123 J-0.029
X27.59 Y32.768 I0.122 J0.351
G1 X27.643 Y32.963
X27.659 Y33.037
X27.647 Y33.111
X27.584 Y33.247
X27.461 Y33.302
X27.327 Y33.292
X27.214 Y33.22
X27.148 Y33.103
X27.086 Y32.874
G3 X27.166 Y32.726 I0.123 J-0.029
X27.643 Y32.963 I0.126 J0.346
G1 X27.706 Y33.194
X27.722 Y33.267
X27.692 Y33.414
X27.594 Y33.487
X27.474 Y33.512
X27.355 Y33.484
X27.258 Y33.41
X27.202 Y33.301
X27.148 Y33.103
G3 X27.229 Y32.955 I0.123 J-0.029
X27.706 Y33.194 I0.124 J0.348
G1 X27.762 Y33.401
X27.778 Y33.474
X27.745 Y33.62
X27.647 Y33.692
X27.528 Y33.716
X27.409 Y33.688
X27.313 Y33.613
X27.257 Y33.505
X27.202 Y33.301
G3 X27.287 Y33.152 I0.123 J-0.029
X27.762 Y33.401 I0.113 J0.361
G1 X27.823 Y33.624
X27.839 Y33.697
X27.795 Y33.84
X27.695 Y33.906
X27.577 Y33.925
X27.462 Y33.895
X27.368 Y33.82
X27.314 Y33.713
X27.257 Y33.505
G3 X27.352 Y33.353 I0.123 J-0.029
X27.823 Y33.624 I0.09 J0.388
G1 X27.872 Y33.805
X27.888 Y33.878
X27.876 Y33.952
X27.812 Y34.088
X27.689 Y34.142
X27.555 Y34.132
X27.442 Y34.06
X27.376 Y33.943
X27.314 Y33.713
G3 X27.395 Y33.565 I0.123 J-0.029
X27.872 Y33.805 I0.123 J0.349
G1 X27.935 Y34.035
X27.951 Y34.108
X27.92 Y34.255
X27.822 Y34.328
X27.702 Y34.352
X27.583 Y34.325
X27.487 Y34.25
X27.43 Y34.142
X27.376 Y33.943
G3 X27.458 Y33.794 I0.123 J-0.029
X27.935 Y34.035 I0.122 J0.35
G1 X27.988 Y34.23
X28.004 Y34.304
X27.992 Y34.378
X27.928 Y34.514
X27.806 Y34.569
X27.672 Y34.56
X27.558 Y34.488
X27.492 Y34.371
X27.43 Y34.142
G3 X27.51 Y33.994 I0.123 J-0.029
X27.988 Y34.23 I0.126 J0.346
G1 X28.05 Y34.461
X28.066 Y34.534
X28.037 Y34.681
X27.938 Y34.754
X27.819 Y34.779
X27.7 Y34.752
X27.603 Y34.677
X27.546 Y34.569
X27.492 Y34.371
G3 X27.573 Y34.222 I0.123 J-0.029
X28.05 Y34.461 I0.124 J0.348
G1 X28.107 Y34.668
X28.123 Y34.741
X28.09 Y34.888
X27.992 Y34.959
X27.872 Y34.983
X27.754 Y34.955
X27.658 Y34.88
X27.602 Y34.772
X27.546 Y34.569
G3 X27.632 Y34.419 I0.123 J-0.029
X28.107 Y34.668 I0.114 J0.361
G1 X28.158 Y34.856
X28.174 Y34.929
X28.164 Y35.004
X28.103 Y35.141
X27.98 Y35.197
X27.845 Y35.189
X27.73 Y35.117
X27.663 Y34.999
X27.602 Y34.772
G3 X27.679 Y34.625 I0.123 J-0.029
X28.158 Y34.856 I0.132 J0.338
G1 X28.229 Y35.116
X28.245 Y35.189
X28.2 Y35.332
X28.1 Y35.398
X27.983 Y35.417
X27.867 Y35.387
X27.774 Y35.313
X27.72 Y35.207
X27.663 Y34.999
G3 X27.757 Y34.847 I0.123 J-0.029
X28.229 Y35.116 I0.092 J0.386
G1 X28.279 Y35.302
X28.295 Y35.375
X28.282 Y35.449
X28.215 Y35.584
X28.093 Y35.637
X27.96 Y35.626
X27.848 Y35.554
X27.783 Y35.438
X27.72 Y35.207
G3 X27.803 Y35.057 I0.123 J-0.029
X28.279 Y35.302 I0.118 J0.356
G1 X28.342 Y35.532
X28.358 Y35.606
X28.325 Y35.752
X28.227 Y35.824
X28.108 Y35.848
X27.989 Y35.82
X27.893 Y35.745
X27.837 Y35.637
X27.783 Y35.438
G3 X27.866 Y35.289 I0.123 J-0.029
X28.342 Y35.532 I0.119 J0.355
G1 X28.395 Y35.728
X28.411 Y35.801
X28.398 Y35.875
X28.334 Y36.011
X28.211 Y36.065
X28.078 Y36.055
X27.965 Y35.983
X27.899 Y35.867
X27.837 Y35.637
G3 X27.918 Y35.489 I0.123 J-0.029
X28.395 Y35.728 I0.123 J0.349
G1 X28.458 Y35.958
X28.474 Y36.032
X28.443 Y36.178
X28.345 Y36.251
X28.225 Y36.275
X28.106 Y36.248
X28.01 Y36.173
X27.953 Y36.065
X27.899 Y35.867
G3 X27.981 Y35.718 I0.123 J-0.029
X28.458 Y35.958 I0.123 J0.35
G1 X28.509 Y36.148
X28.525 Y36.222
X28.515 Y36.296
X28.455 Y36.433
X28.332 Y36.49
X28.196 Y36.481
X28.082 Y36.41
X28.015 Y36.292
X27.953 Y36.065
G3 X28.03 Y35.918 I0.123 J-0.029
X28.509 Y36.148 I0.132 J0.338
G1 X28.569 Y36.367
X28.585 Y36.441
X28.575 Y36.515
X28.513 Y36.652
X28.391 Y36.71
X28.256 Y36.702
X28.142 Y36.631
X28.075 Y36.514
X28.015 Y36.292
G3 X28.088 Y36.146 I0.123 J-0.029
X28.569 Y36.367 I0.141 J0.326
G1 X28.636 Y36.613
X28.652 Y36.687
X28.615 Y36.832
X28.517 Y36.902
X28.398 Y36.925
X28.281 Y36.896
X28.186 Y36.822
X28.13 Y36.715
X28.075 Y36.514
G3 X28.161 Y36.364 I0.123 J-0.029
X28.636 Y36.613 I0.113 J0.361
G1 X28.686 Y36.8
X28.702 Y36.873
X28.692 Y36.947
X28.63 Y37.084
X28.507 Y37.14
X28.372 Y37.131
X28.258 Y37.059
X28.192 Y36.941
X28.13 Y36.715
G3 X28.208 Y36.567 I0.123 J-0.029
X28.686 Y36.8 I0.131 J0.34
G1 X28.749 Y37.03
X28.765 Y37.103
X28.737 Y37.251
X28.639 Y37.324
X28.519 Y37.35
X28.399 Y37.323
X28.302 Y37.248
X28.245 Y37.139
X28.192 Y36.941
G3 X28.271 Y36.793 I0.123 J-0.029
X28.749 Y37.03 I0.126 J0.345
G1 X28.802 Y37.226
X28.818 Y37.299
X28.807 Y37.373
X28.745 Y37.509
X28.622 Y37.565
X28.488 Y37.556
X28.374 Y37.485
X28.307 Y37.367
X28.245 Y37.139
G3 X28.324 Y36.992 I0.123 J-0.029
X28.802 Y37.226 I0.129 J0.342
G1 X28.865 Y37.456
X28.881 Y37.529
X28.852 Y37.676
X28.754 Y37.75
X28.634 Y37.775
X28.515 Y37.748
X28.418 Y37.673
X28.361 Y37.565
X28.307 Y37.367
G3 X28.387 Y37.219 I0.123 J-0.029
X28.865 Y37.456 I0.126 J0.346
G1 X28.921 Y37.663
X28.937 Y37.736
X28.905 Y37.883
X28.807 Y37.955
X28.687 Y37.979
X28.569 Y37.951
X28.473 Y37.876
X28.416 Y37.768
X28.361 Y37.565
G3 X28.446 Y37.415 I0.123 J-0.029
X28.921 Y37.663 I0.115 J0.359
G1 X28.976 Y37.865
X28.992 Y37.938
X28.962 Y38.085
X28.863 Y38.158
X28.744 Y38.182
X28.625 Y38.155
X28.528 Y38.08
X28.472 Y37.972
X28.416 Y37.768
G3 X28.5 Y37.619 I0.123 J-0.029
X28.976 Y37.865 I0.117 J0.357
G1 X29.031 Y38.067
X29.047 Y38.14
X29.018 Y38.287
X28.92 Y38.36
X28.8 Y38.385
X28.681 Y38.358
X28.584 Y38.284
X28.527 Y38.175
X28.472 Y37.972
G3 X28.555 Y37.823 I0.123 J-0.029
X29.031 Y38.067 I0.119 J0.354
G1 X29.084 Y38.262
X29.1 Y38.336
X29.088 Y38.41
X29.026 Y38.546
X28.903 Y38.602
X28.769 Y38.592
X28.655 Y38.521
X28.589 Y38.403
X28.527 Y38.175
G3 X28.606 Y38.028 I0.123 J-0.029
X29.084 Y38.262 I0.128 J0.343
G1 X29.147 Y38.493
X29.163 Y38.566
X29.134 Y38.713
X29.036 Y38.786
X28.916 Y38.811
X28.797 Y38.784
X28.7 Y38.71
X28.643 Y38.601
X28.589 Y38.403
G3 X28.669 Y38.255 I0.123 J-0.029
X29.147 Y38.493 I0.125 J0.347
G1 X29.2 Y38.687
X29.216 Y38.76
X29.205 Y38.834
X29.143 Y38.971
X29.02 Y39.027
X28.885 Y39.018
X28.771 Y38.946
X28.705 Y38.829
X28.643 Y38.601
G3 X28.721 Y38.454 I0.123 J-0.029
X29.2 Y38.687 I0.13 J0.341
G1 X29.266 Y38.93
X29.282 Y39.003
X29.246 Y39.149
X29.147 Y39.219
X29.028 Y39.241
X28.911 Y39.213
X28.816 Y39.138
X28.76 Y39.031
X28.705 Y38.829
G3 X28.791 Y38.679 I0.123 J-0.029
X29.266 Y38.93 I0.111 J0.364
G1 X29.325 Y39.148
X29.341 Y39.221
X29.298 Y39.365
X29.198 Y39.431
X29.08 Y39.45
X28.964 Y39.42
X28.871 Y39.345
X28.816 Y39.239
X28.76 Y39.031
G3 X28.854 Y38.879 I0.123 J-0.029
X29.325 Y39.148 I0.092 J0.386
G1 X29.376 Y39.334
X29.392 Y39.407
X29.378 Y39.481
X29.312 Y39.616
X29.19 Y39.669
X29.057 Y39.658
X28.944 Y39.586
X28.879 Y39.47
X28.816 Y39.239
G3 X28.9 Y39.09 I0.123 J-0.029
X29.345 Y39.262 I0.119 J0.355
X29.376 Y39.334 I-0.326 J0.183
G1 X29.438 Y39.564
X29.454 Y39.638
X29.422 Y39.784
X29.324 Y39.856
X29.204 Y39.88
X29.086 Y39.852
X28.99 Y39.777
X28.933 Y39.669
X28.879 Y39.47
G3 X28.962 Y39.321 I0.123 J-0.029
X29.438 Y39.564 I0.12 J0.354
G1 X29.491 Y39.76
X29.507 Y39.833
X29.495 Y39.907
X29.431 Y40.043
X29.308 Y40.097
X29.175 Y40.087
X29.061 Y40.016
X28.996 Y39.899
X28.933 Y39.669
G3 X29.014 Y39.521 I0.123 J-0.029
X29.491 Y39.76 I0.124 J0.348
G1 X29.554 Y39.99
X29.57 Y40.063
X29.539 Y40.21
X29.441 Y40.283
X29.322 Y40.307
X29.203 Y40.28
X29.106 Y40.205
X29.05 Y40.097
X28.996 Y39.899
G3 X29.077 Y39.75 I0.123 J-0.029
X29.554 Y39.99 I0.123 J0.35
G1 X29.61 Y40.197
X29.626 Y40.271
X29.593 Y40.417
X29.495 Y40.488
X29.375 Y40.512
X29.257 Y40.484
X29.161 Y40.409
X29.105 Y40.301
X29.05 Y40.097
G3 X29.135 Y39.947 I0.123 J-0.029
X29.61 Y40.197 I0.112 J0.362
G1 X29.67 Y40.415
X29.686 Y40.489
X29.644 Y40.633
X29.544 Y40.699
X29.426 Y40.72
X29.31 Y40.69
X29.217 Y40.615
X29.162 Y40.508
X29.105 Y40.301
G3 X29.198 Y40.149 I0.123 J-0.029
X29.67 Y40.415 I0.095 J0.383
G1 X29.72 Y40.601
X29.736 Y40.674
X29.724 Y40.748
X29.659 Y40.883
X29.536 Y40.938
X29.403 Y40.927
X29.29 Y40.855
X29.224 Y40.738
X29.162 Y40.508
G3 X29.244 Y40.36 I0.123 J-0.029
X29.72 Y40.601 I0.122 J0.351
G1 X29.783 Y40.831
X29.799 Y40.905
X29.768 Y41.051
X29.669 Y41.123
X29.55 Y41.148
X29.431 Y41.12
X29.335 Y41.046
X29.278 Y40.937
X29.224 Y40.738
G3 X29.306 Y40.59 I0.123 J-0.029
X29.783 Y40.831 I0.121 J0.352
G1 X29.836 Y41.027
X29.852 Y41.1
X29.84 Y41.174
X29.776 Y41.31
X29.654 Y41.365
X29.52 Y41.355
X29.406 Y41.283
X29.341 Y41.166
X29.278 Y40.937
G3 X29.359 Y40.789 I0.123 J-0.029
X29.836 Y41.027 I0.125 J0.347
G1 X29.899 Y41.257
X29.915 Y41.331
X29.885 Y41.478
X29.786 Y41.55
X29.667 Y41.575
X29.548 Y41.548
X29.451 Y41.473
X29.394 Y41.365
X29.341 Y41.166
G3 X29.422 Y41.018 I0.123 J-0.029
X29.899 Y41.257 I0.124 J0.349
G1 X29.955 Y41.464
X29.971 Y41.538
X29.938 Y41.684
X29.84 Y41.755
X29.72 Y41.779
X29.602 Y41.751
X29.506 Y41.676
X29.45 Y41.569
X29.394 Y41.365
G3 X29.48 Y41.215 I0.123 J-0.029
X29.955 Y41.464 I0.113 J0.362
G1 X30.015 Y41.684
X30.031 Y41.757
X29.988 Y41.901
X29.889 Y41.968
X29.771 Y41.987
X29.655 Y41.957
X29.561 Y41.883
X29.506 Y41.776
X29.45 Y41.569
G3 X29.543 Y41.417 I0.123 J-0.029
X30.015 Y41.684 I0.094 J0.384
G1 X30.065 Y41.868
X30.081 Y41.941
X30.069 Y42.015
X30.004 Y42.151
X29.881 Y42.205
X29.748 Y42.195
X29.635 Y42.123
X29.569 Y42.006
X29.506 Y41.776
G3 X29.588 Y41.628 I0.123 J-0.029
X30.065 Y41.868 I0.122 J0.35
G1 X30.127 Y42.099
X30.143 Y42.172
X30.113 Y42.319
X30.014 Y42.391
X29.895 Y42.415
X29.776 Y42.388
X29.679 Y42.313
X29.623 Y42.205
X29.569 Y42.006
G3 X29.651 Y41.857 I0.123 J-0.029
X30.127 Y42.099 I0.122 J0.351
G1 X30.181 Y42.294
X30.197 Y42.367
X30.184 Y42.441
X30.121 Y42.577
X29.998 Y42.632
X29.864 Y42.623
X29.751 Y42.551
X29.685 Y42.434
X29.623 Y42.205
G3 X29.703 Y42.057 I0.123 J-0.029
X30.181 Y42.294 I0.126 J0.346
G1 X30.243 Y42.524
X30.259 Y42.598
X30.229 Y42.745
X30.131 Y42.817
X30.011 Y42.842
X29.892 Y42.815
X29.796 Y42.74
X29.739 Y42.632
X29.685 Y42.434
G3 X29.766 Y42.285 I0.123 J-0.029
X30.243 Y42.524 I0.124 J0.348
G1 X30.3 Y42.732
X30.316 Y42.805
X30.283 Y42.951
X30.184 Y43.022
X30.065 Y43.046
X29.947 Y43.018
X29.851 Y42.944
X29.795 Y42.836
X29.739 Y42.632
G3 X29.825 Y42.482 I0.123 J-0.029
X30.3 Y42.732 I0.113 J0.361
G1 X30.36 Y42.953
X30.376 Y43.026
X30.333 Y43.169
X30.233 Y43.235
X30.115 Y43.255
X29.999 Y43.225
X29.906 Y43.15
X29.851 Y43.044
X29.795 Y42.836
G3 X29.888 Y42.684 I0.123 J-0.029
X30.329 Y42.88 I0.092 J0.386
X30.36 Y42.953 I-0.349 J0.19
G1 X30.409 Y43.135
X30.425 Y43.209
X30.413 Y43.283
X30.349 Y43.418
X30.226 Y43.472
X30.092 Y43.462
X29.979 Y43.39
X29.914 Y43.273
X29.851 Y43.044
G3 X29.932 Y42.895 I0.123 J-0.029
X30.409 Y43.135 I0.123 J0.35
G1 X30.472 Y43.366
X30.488 Y43.439
X30.457 Y43.586
X30.359 Y43.658
X30.239 Y43.683
X30.121 Y43.655
X30.024 Y43.58
X29.968 Y43.472
X29.914 Y43.273
G3 X29.995 Y43.125 I0.123 J-0.029
X30.472 Y43.366 I0.122 J0.351
G1 X30.525 Y43.561
X30.541 Y43.634
X30.529 Y43.708
X30.466 Y43.844
X30.343 Y43.9
X30.209 Y43.89
X30.096 Y43.818
X30.03 Y43.701
X29.968 Y43.472
G3 X30.048 Y43.324 I0.123 J-0.029
X30.525 Y43.561 I0.126 J0.346
G1 X30.588 Y43.792
X30.604 Y43.865
X30.574 Y44.012
X30.476 Y44.085
X30.356 Y44.11
X30.237 Y44.082
X30.14 Y44.008
X30.084 Y43.899
X30.03 Y43.701
G3 X30.111 Y43.553 I0.123 J-0.029
X30.588 Y43.792 I0.124 J0.348
G1 X30.644 Y43.999
X30.66 Y44.072
X30.627 Y44.218
X30.529 Y44.29
X30.41 Y44.314
X30.291 Y44.286
X30.195 Y44.211
X30.139 Y44.103
X30.084 Y43.899
G3 X30.169 Y43.749 I0.123 J-0.029
X30.644 Y43.999 I0.113 J0.361
G1 X30.705 Y44.221
X30.721 Y44.294
X30.677 Y44.438
X30.577 Y44.503
X30.459 Y44.523
X30.344 Y44.492
X30.25 Y44.417
X30.196 Y44.311
X30.139 Y44.103
G3 X30.233 Y43.951 I0.123 J-0.029
X30.705 Y44.221 I0.091 J0.388
G1 X30.754 Y44.402
X30.77 Y44.476
X30.758 Y44.55
X30.694 Y44.685
X30.571 Y44.74
X30.437 Y44.73
X30.324 Y44.658
X30.258 Y44.541
X30.196 Y44.311
G3 X30.277 Y44.163 I0.123 J-0.029
X30.754 Y44.402 I0.123 J0.349
G1 X30.817 Y44.633
X30.833 Y44.706
X30.802 Y44.853
X30.704 Y44.925
X30.584 Y44.95
X30.465 Y44.923
X30.369 Y44.848
X30.312 Y44.74
X30.258 Y44.541
G3 X30.34 Y44.392 I0.123 J-0.029
X30.817 Y44.633 I0.122 J0.351
G1 X30.87 Y44.828
X30.886 Y44.902
X30.874 Y44.976
X30.81 Y45.112
X30.688 Y45.167
X30.554 Y45.157
X30.44 Y45.085
X30.374 Y44.968
X30.312 Y44.74
G3 X30.392 Y44.592 I0.123 J-0.029
X30.87 Y44.828 I0.126 J0.346
G1 X30.932 Y45.059
X30.948 Y45.132
X30.919 Y45.279
X30.82 Y45.352
X30.701 Y45.377
X30.582 Y45.349
X30.485 Y45.275
X30.428 Y45.166
X30.374 Y44.968
G3 X30.455 Y44.82 I0.123 J-0.029
X30.932 Y45.059 I0.124 J0.348
G1 X30.989 Y45.266
X31.005 Y45.339
X30.972 Y45.485
X30.874 Y45.557
X30.754 Y45.581
X30.636 Y45.553
X30.54 Y45.478
X30.484 Y45.37
X30.428 Y45.166
G3 X30.514 Y45.017 I0.123 J-0.029
X30.989 Y45.266 I0.114 J0.361
G1 X31.04 Y45.453
X31.056 Y45.526
X31.046 Y45.601
X30.985 Y45.738
X30.862 Y45.795
X30.727 Y45.787
X30.612 Y45.715
X30.545 Y45.596
X30.484 Y45.37
G3 X30.561 Y45.223 I0.123 J-0.029
X31.04 Y45.453 I0.133 J0.337
G1 X31.111 Y45.714
X31.127 Y45.787
X31.082 Y45.93
X30.982 Y45.996
X30.865 Y46.015
X30.749 Y45.985
X30.656 Y45.91
X30.602 Y45.804
X30.545 Y45.596
G3 X30.639 Y45.444 I0.123 J-0.029
X31.111 Y45.714 I0.091 J0.387
G1 X31.161 Y45.9
X31.177 Y45.973
X31.163 Y46.047
X31.097 Y46.181
X30.975 Y46.234
X30.842 Y46.224
X30.73 Y46.152
X30.665 Y46.035
X30.602 Y45.804
G3 X30.685 Y45.655 I0.123 J-0.029
X31.161 Y45.9 I0.118 J0.356
G1 X31.224 Y46.13
X31.24 Y46.204
X31.207 Y46.35
X31.109 Y46.421
X30.989 Y46.445
X30.871 Y46.417
X30.775 Y46.343
X30.719 Y46.235
X30.665 Y46.035
G3 X30.748 Y45.886 I0.123 J-0.029
X31.224 Y46.13 I0.119 J0.355
G1 X31.277 Y46.326
X31.293 Y46.399
X31.28 Y46.473
X31.216 Y46.609
X31.093 Y46.663
X30.96 Y46.653
X30.847 Y46.581
X30.781 Y46.464
X30.719 Y46.235
G3 X30.8 Y46.086 I0.123 J-0.029
X31.277 Y46.326 I0.123 J0.349
G1 X31.34 Y46.556
X31.356 Y46.63
X31.325 Y46.776
X31.227 Y46.849
X31.107 Y46.873
X30.988 Y46.846
X30.892 Y46.771
X30.835 Y46.663
X30.781 Y46.464
G3 X30.863 Y46.316 I0.123 J-0.029
X31.309 Y46.484 I0.122 J0.35
X31.34 Y46.556 I-0.323 J0.182
G1 X31.391 Y46.746
X31.407 Y46.819
X31.397 Y46.893
X31.337 Y47.031
X31.214 Y47.088
X31.078 Y47.079
X30.963 Y47.007
X30.897 Y46.889
X30.835 Y46.663
G3 X30.912 Y46.516 I0.123 J-0.029
X31.391 Y46.746 I0.133 J0.337
G1 X31.451 Y46.965
X31.467 Y47.038
X31.457 Y47.113
X31.394 Y47.249
X31.273 Y47.307
X31.138 Y47.3
X31.024 Y47.229
X30.957 Y47.112
X30.897 Y46.889
G3 X30.97 Y46.744 I0.123 J-0.029
X31.451 Y46.965 I0.141 J0.327
G1 X31.518 Y47.211
X31.534 Y47.285
X31.497 Y47.43
X31.399 Y47.5
X31.28 Y47.523
X31.163 Y47.494
X31.068 Y47.42
X31.012 Y47.312
X30.957 Y47.112
G3 X31.043 Y46.962 I0.123 J-0.029
X31.518 Y47.211 I0.113 J0.361
G1 X31.568 Y47.397
X31.584 Y47.471
X31.574 Y47.545
X31.512 Y47.682
X31.389 Y47.738
X31.254 Y47.729
X31.14 Y47.657
X31.074 Y47.539
X31.012 Y47.312
G3 X31.09 Y47.165 I0.123 J-0.029
X31.568 Y47.397 I0.13 J0.34
G1 X31.631 Y47.628
X31.647 Y47.701
X31.619 Y47.848
X31.521 Y47.922
X31.401 Y47.948
X31.281 Y47.92
X31.184 Y47.846
X31.127 Y47.737
X31.074 Y47.539
G3 X31.153 Y47.391 I0.123 J-0.029
X31.631 Y47.628 I0.126 J0.345
G1 X31.684 Y47.823
X31.7 Y47.897
X31.689 Y47.971
X31.627 Y48.107
X31.504 Y48.163
X31.37 Y48.154
X31.256 Y48.082
X31.189 Y47.965
X31.127 Y47.737
G3 X31.206 Y47.59 I0.123 J-0.029
X31.684 Y47.823 I0.129 J0.342
G1 X31.747 Y48.054
X31.763 Y48.127
X31.734 Y48.274
X31.636 Y48.348
X31.516 Y48.373
X31.397 Y48.346
X31.3 Y48.271
X31.243 Y48.163
X31.189 Y47.965
G3 X31.269 Y47.817 I0.123 J-0.029
X31.747 Y48.054 I0.126 J0.346
G1 X31.803 Y48.261
X31.819 Y48.334
X31.787 Y48.481
X31.689 Y48.552
X31.569 Y48.577
X31.451 Y48.549
X31.355 Y48.474
X31.298 Y48.366
X31.243 Y48.163
G3 X31.328 Y48.013 I0.123 J-0.029
X31.803 Y48.261 I0.115 J0.359
G1 X31.858 Y48.463
X31.874 Y48.536
X31.844 Y48.683
X31.745 Y48.755
X31.626 Y48.78
X31.507 Y48.753
X31.41 Y48.678
X31.354 Y48.57
X31.298 Y48.366
G3 X31.382 Y48.217 I0.123 J-0.029
X31.858 Y48.463 I0.117 J0.357
G1 X31.913 Y48.665
X31.929 Y48.738
X31.9 Y48.885
X31.801 Y48.958
X31.682 Y48.983
X31.563 Y48.956
X31.466 Y48.881
X31.409 Y48.773
X31.354 Y48.57
G3 X31.437 Y48.421 I0.123 J-0.029
X31.913 Y48.665 I0.119 J0.354
G1 X31.966 Y48.86
X31.982 Y48.933
X31.97 Y49.008
X31.908 Y49.144
X31.785 Y49.199
X31.651 Y49.19
X31.537 Y49.118
X31.471 Y49.001
X31.409 Y48.773
G3 X31.488 Y48.625 I0.123 J-0.029
X31.966 Y48.86 I0.128 J0.343
G1 X32.029 Y49.091
X32.045 Y49.164
X32.016 Y49.311
X31.918 Y49.384
X31.798 Y49.409
X31.679 Y49.382
X31.582 Y49.307
X31.525 Y49.199
X31.471 Y49.001
G3 X31.551 Y48.853 I0.123 J-0.029
X32.029 Y49.091 I0.125 J0.347
G1 X32.081 Y49.284
X32.097 Y49.357
X32.087 Y49.432
X32.025 Y49.568
X31.902 Y49.625
X31.767 Y49.616
X31.653 Y49.544
X31.587 Y49.426
X31.525 Y49.199
G3 X31.603 Y49.052 I0.123 J-0.029
X32.081 Y49.284 I0.13 J0.34
G1 X32.148 Y49.528
X32.164 Y49.601
X32.128 Y49.747
X32.029 Y49.817
X31.91 Y49.839
X31.793 Y49.811
X31.697 Y49.736
X31.642 Y49.629
X31.587 Y49.426
G3 X31.673 Y49.276 I0.123 J-0.029
X32.148 Y49.528 I0.111 J0.365
G1 X32.207 Y49.746
X32.223 Y49.819
X32.18 Y49.962
X32.08 Y50.028
X31.962 Y50.048
X31.846 Y50.018
X31.753 Y49.943
X31.698 Y49.837
X31.642 Y49.629
G3 X31.736 Y49.477 I0.123 J-0.029
X32.207 Y49.746 I0.092 J0.387
G1 X32.258 Y49.932
X32.274 Y50.005
X32.26 Y50.079
X32.194 Y50.214
X32.072 Y50.267
X31.939 Y50.256
X31.826 Y50.184
X31.761 Y50.068
X31.698 Y49.837
G3 X31.781 Y49.688 I0.123 J-0.029
X32.227 Y49.86 I0.119 J0.355
X32.258 Y49.932 I-0.327 J0.183
G1 X32.32 Y50.162
X32.336 Y50.235
X32.304 Y50.382
X32.206 Y50.454
X32.086 Y50.478
X31.968 Y50.45
X31.872 Y50.375
X31.815 Y50.267
X31.761 Y50.068
G3 X31.844 Y49.919 I0.123 J-0.029
X32.32 Y50.162 I0.119 J0.354
G1 X32.373 Y50.358
X32.389 Y50.431
X32.377 Y50.505
X32.313 Y50.64
X32.19 Y50.695
X32.057 Y50.685
X31.943 Y50.613
X31.878 Y50.497
X31.815 Y50.267
G3 X31.896 Y50.119 I0.123 J-0.029
X32.373 Y50.358 I0.124 J0.348
G1 X32.436 Y50.588
X32.452 Y50.661
X32.421 Y50.808
X32.323 Y50.881
X32.204 Y50.905
X32.085 Y50.878
X31.988 Y50.803
X31.932 Y50.695
X31.878 Y50.497
G3 X31.959 Y50.348 I0.123 J-0.029
X32.436 Y50.588 I0.123 J0.35
G1 X32.492 Y50.795
X32.508 Y50.868
X32.475 Y51.015
X32.377 Y51.086
X32.257 Y51.109
X32.139 Y51.081
X32.043 Y51.007
X31.987 Y50.899
X31.932 Y50.695
G3 X32.017 Y50.545 I0.123 J-0.029
X32.492 Y50.795 I0.112 J0.362
G1 X32.552 Y51.013
X32.568 Y51.086
X32.526 Y51.23
X32.427 Y51.297
X32.308 Y51.317
X32.192 Y51.287
X32.099 Y51.213
X32.044 Y51.106
X31.987 Y50.899
G3 X32.08 Y50.747 I0.123 J-0.029
X32.521 Y50.941 I0.096 J0.382
X32.552 Y51.013 I-0.346 J0.189
G1 X32.602 Y51.199
X32.618 Y51.272
X32.606 Y51.346
X32.541 Y51.481
X32.418 Y51.535
X32.285 Y51.525
X32.172 Y51.453
X32.106 Y51.336
X32.044 Y51.106
G3 X32.126 Y50.957 I0.123 J-0.029
X32.571 Y51.127 I0.121 J0.351
X32.602 Y51.199 I-0.324 J0.182
G1 X32.665 Y51.429
X32.681 Y51.503
X32.65 Y51.649
X32.551 Y51.721
X32.432 Y51.746
X32.313 Y51.718
X32.217 Y51.643
X32.16 Y51.535
X32.106 Y51.336
G3 X32.188 Y51.188 I0.123 J-0.029
X32.665 Y51.429 I0.121 J0.352
G1 X32.718 Y51.625
X32.734 Y51.698
X32.722 Y51.772
X32.658 Y51.908
X32.535 Y51.963
X32.402 Y51.953
X32.288 Y51.881
X32.223 Y51.764
X32.16 Y51.535
G3 X32.241 Y51.387 I0.123 J-0.029
X32.718 Y51.625 I0.125 J0.347
G1 X32.781 Y51.855
X32.797 Y51.928
X32.766 Y52.075
X32.668 Y52.148
X32.549 Y52.173
X32.43 Y52.146
X32.333 Y52.071
X32.276 Y51.963
X32.223 Y51.764
G3 X32.304 Y51.616 I0.123 J-0.029
X32.781 Y51.855 I0.124 J0.349
G1 X32.837 Y52.062
X32.853 Y52.136
X32.82 Y52.282
X32.721 Y52.353
X32.602 Y52.377
X32.484 Y52.349
X32.388 Y52.274
X32.332 Y52.167
X32.276 Y51.963
G3 X32.362 Y51.813 I0.123 J-0.029
X32.837 Y52.062 I0.113 J0.362
G1 X32.897 Y52.281
X32.913 Y52.355
X32.87 Y52.499
X32.771 Y52.565
X32.653 Y52.585
X32.537 Y52.555
X32.443 Y52.48
X32.388 Y52.374
X32.332 Y52.167
G3 X32.425 Y52.015 I0.123 J-0.029
X32.866 Y52.209 I0.094 J0.384
X32.897 Y52.281 I-0.347 J0.189
G1 X32.947 Y52.466
X32.963 Y52.539
X32.951 Y52.613
X32.886 Y52.749
X32.763 Y52.803
X32.63 Y52.793
X32.516 Y52.721
X32.451 Y52.604
X32.388 Y52.374
G3 X32.47 Y52.225 I0.123 J-0.029
X32.947 Y52.466 I0.122 J0.351
G1 X33.009 Y52.696
X33.025 Y52.77
X32.994 Y52.916
X32.896 Y52.989
X32.777 Y53.013
X32.658 Y52.986
X32.561 Y52.911
X32.505 Y52.803
X32.451 Y52.604
G3 X32.533 Y52.455 I0.123 J-0.029
X33.009 Y52.696 I0.122 J0.351
G1 X33.063 Y52.892
X33.079 Y52.965
X33.066 Y53.039
X33.003 Y53.175
X32.88 Y53.23
X32.746 Y53.221
X32.633 Y53.149
X32.567 Y53.032
X32.505 Y52.803
G3 X32.585 Y52.655 I0.123 J-0.029
X33.063 Y52.892 I0.126 J0.346
G1 X33.125 Y53.122
X33.141 Y53.196
X33.111 Y53.343
X33.013 Y53.415
X32.893 Y53.44
X32.774 Y53.413
X32.678 Y53.338
X32.621 Y53.23
X32.567 Y53.032
G3 X32.648 Y52.883 I0.123 J-0.029
X33.125 Y53.122 I0.124 J0.349
G1 X33.182 Y53.329
X33.198 Y53.403
X33.165 Y53.549
X33.066 Y53.62
X32.947 Y53.644
X32.829 Y53.616
X32.733 Y53.542
X32.677 Y53.434
X32.621 Y53.23
G3 X32.706 Y53.08 I0.123 J-0.029
X33.182 Y53.329 I0.113 J0.361
G1 X33.242 Y53.55
X33.258 Y53.623
X33.215 Y53.767
X33.115 Y53.833
X32.997 Y53.853
X32.881 Y53.823
X32.788 Y53.748
X32.733 Y53.641
X32.677 Y53.434
G3 X32.77 Y53.282 I0.123 J-0.029
X33.242 Y53.55 I0.093 J0.385
G1 X33.291 Y53.733
X33.307 Y53.806
X33.295 Y53.88
X33.231 Y54.016
X33.108 Y54.07
X32.974 Y54.06
X32.861 Y53.988
X32.795 Y53.871
X32.733 Y53.641
G3 X32.814 Y53.493 I0.123 J-0.029
X33.26 Y53.661 I0.123 J0.35
X33.291 Y53.733 I-0.323 J0.182
G1 X33.354 Y53.964
X33.37 Y54.037
X33.339 Y54.184
X33.241 Y54.256
X33.121 Y54.281
X33.003 Y54.253
X32.906 Y54.178
X32.85 Y54.07
X32.795 Y53.871
G3 X32.877 Y53.722 I0.123 J-0.029
X33.354 Y53.964 I0.122 J0.351
G1 X33.407 Y54.159
X33.423 Y54.232
X33.411 Y54.306
X33.348 Y54.442
X33.225 Y54.497
X33.091 Y54.488
X32.978 Y54.416
X32.912 Y54.299
X32.85 Y54.07
G3 X32.93 Y53.922 I0.123 J-0.029
X33.407 Y54.159 I0.126 J0.346
G1 X33.47 Y54.389
X33.486 Y54.463
X33.456 Y54.61
X33.358 Y54.682
X33.238 Y54.707
X33.119 Y54.68
X33.022 Y54.605
X32.966 Y54.497
X32.912 Y54.299
G3 X32.993 Y54.151 I0.123 J-0.029
X33.47 Y54.389 I0.124 J0.348
G1 X33.526 Y54.597
X33.542 Y54.67
X33.509 Y54.816
X33.411 Y54.888
X33.292 Y54.911
X33.173 Y54.883
X33.077 Y54.809
X33.021 Y54.701
X32.966 Y54.497
G3 X33.051 Y54.347 I0.123 J-0.029
X33.526 Y54.597 I0.113 J0.361
G1 X33.586 Y54.819
X33.603 Y54.892
X33.559 Y55.035
X33.459 Y55.101
X33.341 Y55.12
X33.226 Y55.09
X33.132 Y55.015
X33.078 Y54.909
X33.021 Y54.701
G3 X33.115 Y54.549 I0.123 J-0.029
X33.586 Y54.819 I0.091 J0.387
G1 X33.636 Y55.
X33.652 Y55.074
X33.64 Y55.148
X33.576 Y55.283
X33.453 Y55.338
X33.319 Y55.328
X33.206 Y55.256
X33.14 Y55.139
X33.078 Y54.909
G3 X33.159 Y54.761 I0.123 J-0.029
X33.636 Y55. I0.123 J0.349
G1 X33.699 Y55.231
X33.715 Y55.304
X33.684 Y55.451
X33.586 Y55.523
X33.466 Y55.548
X33.347 Y55.52
X33.251 Y55.446
X33.194 Y55.337
X33.14 Y55.139
G3 X33.222 Y54.99 I0.123 J-0.029
X33.699 Y55.231 I0.122 J0.351
G1 X33.752 Y55.426
X33.768 Y55.5
X33.756 Y55.574
X33.692 Y55.71
X33.57 Y55.765
X33.436 Y55.755
X33.322 Y55.683
X33.256 Y55.566
X33.194 Y55.337
G3 X33.274 Y55.189 I0.123 J-0.029
X33.721 Y55.354 I0.126 J0.346
X33.752 Y55.426 I-0.32 J0.181
G1 X33.814 Y55.657
X33.83 Y55.73
X33.801 Y55.877
X33.702 Y55.95
X33.583 Y55.975
X33.464 Y55.947
X33.367 Y55.873
X33.31 Y55.764
X33.256 Y55.566
G3 X33.337 Y55.418 I0.123 J-0.029
X33.814 Y55.657 I0.124 J0.348
G1 X34.437 Y57.948
X34.441 Y57.965
G3 X34.21 Y58.282 I-0.269 J0.047
X33.9 Y58.041 I-0.038 J-0.271
G1 X33.894 Y57.961
X33.87 Y57.845
X33.798 Y57.558
X33.31 Y55.764
G3 X33.308 Y55.686 I0.195 J-0.046
G1 X33.316 Y55.635 Z0.153
X33.324 Y55.588 Z0.173
X33.33 Y55.547 Z0.205
X33.336 Y55.515 Z0.247
X33.339 Y55.496 Z0.295
X33.34 Y55.489 Z0.347
G0 Z8.
X36.755 Y57.776
Z0.547
G1 Z0.347 F1000.
X36.751 Y57.782 Z0.295
X36.74 Y57.799 Z0.247
X36.723 Y57.825 Z0.205
X36.7 Y57.86 Z0.173
X36.673 Y57.9 Z0.153
X36.644 Y57.943 Z0.147
G3 X36.572 Y57.912 I-0.033 J-0.022
G1 X36.631 Y57.695
X36.654 Y57.624
X36.754 Y57.511
X36.758 Y57.51
X36.879 Y57.494
X36.995 Y57.53
X37.085 Y57.612
X37.133 Y57.724
X37.13 Y57.845
G3 X37.119 Y57.874 I-0.126 J-0.03
X37.093 Y57.914 I-0.233 J-0.119
X36.631 Y57.695 I-0.207 J-0.159
G1 X36.684 Y57.5
X36.708 Y57.428
X36.754 Y57.369
X36.874 Y57.28
X37.009 Y57.291
X37.122 Y57.364
X37.186 Y57.483
X37.187 Y57.618
X37.13 Y57.845
G3 X36.992 Y57.937 I-0.123 J-0.036
X36.684 Y57.5 I0.041 J-0.356
G1 X36.747 Y57.269
X36.77 Y57.198
X36.819 Y57.141
X36.942 Y57.097
X37.072 Y57.116
X37.178 Y57.193
X37.237 Y57.311
X37.233 Y57.442
X37.187 Y57.618
G3 X37.047 Y57.709 I-0.122 J-0.035
X36.747 Y57.269 I0.051 J-0.357
G1 X36.795 Y57.093
X36.818 Y57.022
X36.866 Y56.964
X36.99 Y56.879
X37.123 Y56.891
X37.234 Y56.966
X37.296 Y57.085
X37.294 Y57.219
X37.233 Y57.442
G3 X37.095 Y57.53 I-0.121 J-0.038
X36.795 Y57.093 I0.049 J-0.355
G1 X36.863 Y56.845
X36.886 Y56.773
X36.993 Y56.668
X37.113 Y56.659
X37.226 Y56.701
X37.312 Y56.785
X37.355 Y56.897
X37.349 Y57.017
X37.294 Y57.219
G3 X37.142 Y57.304 I-0.121 J-0.037
X36.852 Y56.922 I0.093 J-0.372
X36.863 Y56.845 I0.383 J0.01
G1 X36.918 Y56.642
X36.941 Y56.57
X37.046 Y56.463
X37.166 Y56.453
X37.28 Y56.494
X37.367 Y56.578
X37.411 Y56.69
X37.405 Y56.811
X37.349 Y57.017
G3 X37.197 Y57.102 I-0.121 J-0.037
X36.918 Y56.642 I0.096 J-0.373
G1 X36.976 Y56.428
X36.999 Y56.357
X37.107 Y56.253
X37.227 Y56.245
X37.34 Y56.288
X37.425 Y56.372
X37.468 Y56.484
X37.461 Y56.604
X37.405 Y56.811
G3 X37.249 Y56.895 I-0.121 J-0.037
X36.966 Y56.506 I0.109 J-0.377
X36.976 Y56.428 I0.392 J0.012
G1 X37.026 Y56.245
X37.049 Y56.174
X37.096 Y56.116
X37.219 Y56.03
X37.353 Y56.045
X37.464 Y56.121
X37.526 Y56.241
X37.523 Y56.375
X37.461 Y56.604
G3 X37.318 Y56.691 I-0.121 J-0.038
X37.026 Y56.245 I0.066 J-0.362
G1 X37.085 Y56.026
X37.109 Y55.954
X37.156 Y55.896
X37.279 Y55.85
X37.41 Y55.867
X37.517 Y55.944
X37.576 Y56.061
X37.573 Y56.193
X37.523 Y56.375
G3 X37.384 Y56.464 I-0.121 J-0.038
X37.085 Y56.026 I0.051 J-0.356
G1 X37.133 Y55.851
X37.156 Y55.78
X37.203 Y55.721
X37.324 Y55.633
X37.459 Y55.644
X37.572 Y55.718
X37.635 Y55.838
X37.633 Y55.973
X37.573 Y56.193
G3 X37.439 Y56.281 I-0.121 J-0.038
X37.133 Y55.851 I0.037 J-0.35
G1 X37.195 Y55.622
X37.218 Y55.55
X37.267 Y55.493
X37.39 Y55.449
X37.52 Y55.468
X37.627 Y55.545
X37.685 Y55.663
X37.682 Y55.794
X37.633 Y55.973
G3 X37.493 Y56.061 I-0.121 J-0.038
X37.195 Y55.622 I0.052 J-0.356
G1 X37.242 Y55.45
X37.265 Y55.378
X37.312 Y55.32
X37.434 Y55.232
X37.568 Y55.244
X37.681 Y55.318
X37.744 Y55.438
X37.742 Y55.573
X37.682 Y55.794
G3 X37.546 Y55.882 I-0.121 J-0.038
X37.242 Y55.45 I0.041 J-0.352
G1 X37.305 Y55.219
X37.328 Y55.148
X37.426 Y55.034
X37.548 Y55.019
X37.664 Y55.057
X37.754 Y55.141
X37.801 Y55.255
X37.795 Y55.377
X37.742 Y55.573
G3 X37.601 Y55.66 I-0.121 J-0.038
X37.305 Y55.219 I0.057 J-0.358
G1 X37.358 Y55.022
X37.382 Y54.95
X37.429 Y54.892
X37.552 Y54.806
X37.686 Y54.82
X37.797 Y54.895
X37.859 Y55.015
X37.857 Y55.15
X37.795 Y55.377
G3 X37.653 Y55.465 I-0.121 J-0.038
X37.358 Y55.022 I0.061 J-0.36
G1 X37.426 Y54.771
X37.45 Y54.7
X37.558 Y54.596
X37.677 Y54.588
X37.79 Y54.629
X37.876 Y54.714
X37.919 Y54.826
X37.912 Y54.945
X37.857 Y55.15
G3 X37.703 Y55.235 I-0.121 J-0.037
X37.426 Y54.771 I0.101 J-0.375
G1 X37.478 Y54.581
X37.501 Y54.51
X37.55 Y54.453
X37.675 Y54.37
X37.808 Y54.386
X37.917 Y54.462
X37.978 Y54.581
X37.975 Y54.715
X37.912 Y54.945
G3 X37.766 Y55.032 I-0.121 J-0.037
X37.478 Y54.581 I0.076 J-0.365
G1 X37.54 Y54.355
X37.563 Y54.283
X37.663 Y54.172
X37.785 Y54.159
X37.9 Y54.198
X37.989 Y54.282
X38.035 Y54.395
X38.029 Y54.517
X37.975 Y54.715
G3 X37.83 Y54.802 I-0.121 J-0.037
X37.54 Y54.355 I0.069 J-0.363
G1 X37.593 Y54.159
X37.616 Y54.088
X37.664 Y54.03
X37.787 Y53.944
X37.921 Y53.959
X38.032 Y54.035
X38.093 Y54.154
X38.091 Y54.289
X38.029 Y54.517
G3 X37.885 Y54.604 I-0.121 J-0.038
X37.593 Y54.159 I0.065 J-0.361
G1 X37.655 Y53.929
X37.679 Y53.857
X37.779 Y53.746
X37.9 Y53.732
X38.016 Y53.771
X38.105 Y53.855
X38.151 Y53.969
X38.145 Y54.091
X38.091 Y54.289
G3 X37.946 Y54.376 I-0.121 J-0.037
X37.655 Y53.929 I0.068 J-0.363
G1 X37.711 Y53.725
X37.734 Y53.653
X37.835 Y53.542
X37.956 Y53.529
X38.072 Y53.568
X38.161 Y53.652
X38.206 Y53.766
X38.2 Y53.887
X38.145 Y54.091
G3 X37.997 Y54.177 I-0.121 J-0.037
X37.711 Y53.725 I0.079 J-0.367
G1 X37.767 Y53.52
X37.79 Y53.448
X37.891 Y53.338
X38.013 Y53.326
X38.128 Y53.365
X38.216 Y53.449
X38.262 Y53.562
X38.255 Y53.684
X38.2 Y53.887
G3 X38.052 Y53.974 I-0.121 J-0.037
